X:1
T:Credo
T:Josef Gruber (1855 - 1933)
T:Credo
T:Agnus Dei
T:Copyright © 2015 by The Choral Public Domain Library. Edition may be freely distributed, duplicated, performed or recorded.
T:Copyright © 2015 by The Choral Public Domain Library. Edition may be freely distributed, duplicated, performed or recorded.
T:Copyright © 2015 by The Choral Public Domain Library. Edition may be freely distributed, duplicated, performed or recorded.
T:Copyright © 2015 by The Choral Public Domain Library. Edition may be freely distributed, duplicated, performed or recorded.
T:Copyright © 2015 by The Choral Public Domain Library. Edition may be freely distributed, duplicated, performed or recorded.
T:Copyright © 2015 by The Choral Public Domain Library. Edition may be freely distributed, duplicated, performed or recorded.
T:Copyright © 2015 by The Choral Public Domain Library. Edition may be freely distributed, duplicated, performed or recorded.
T:Copyright © 2015 by The Choral Public Domain Library. Edition may be freely distributed, duplicated, performed or recorded.
T:Copyright © 2015 by The Choral Public Domain Library. Edition may be freely distributed, duplicated, performed or recorded.
T:Copyright © 2015 by The Choral Public Domain Library. Edition may be freely distributed, duplicated, performed or recorded.
T:Copyright © 2015 by The Choral Public Domain Library. Edition may be freely distributed, duplicated, performed or recorded.
T:Copyright © 2015 by The Choral Public Domain Library. Edition may be freely distributed, duplicated, performed or recorded.
T:Copyright © 2015 by The Choral Public Domain Library. Edition may be freely distributed, duplicated, performed or recorded.
T:Copyright © 2015 by The Choral Public Domain Library. Edition may be freely distributed, duplicated, performed or recorded.
T:Copyright © 2015 by The Choral Public Domain Library. Edition may be freely distributed, duplicated, performed or recorded.
T:Copyright © 2015 by The Choral Public Domain Library. Edition may be freely distributed, duplicated, performed or recorded.
T:Copyright © 2015 by The Choral Public Domain Library. Edition may be freely distributed, duplicated, performed or recorded.
T:Copyright © 2015 by The Choral Public Domain Library. Edition may be freely distributed, duplicated, performed or recorded.
T:Copyright © 2015 by The Choral Public Domain Library. Edition may be freely distributed, duplicated, performed or recorded.
T:Copyright © 2015 by The Choral Public Domain Library. Edition may be freely distributed, duplicated, performed or recorded.
T:Copyright © 2015 by The Choral Public Domain Library. Edition may be freely distributed, duplicated, performed or recorded.
T:Copyright © 2015 by The Choral Public Domain Library. Edition may be freely distributed, duplicated, performed or recorded.
T:Copyright © 2015 by The Choral Public Domain Library. Edition may be freely distributed, duplicated, performed or recorded.
T:Copyright © 2015 by The Choral Public Domain Library. Edition may be freely distributed, duplicated, performed or recorded.
T:Copyright © 2015 by The Choral Public Domain Library. Edition may be freely distributed, duplicated, performed or recorded.
T:Copyright © 2015 by The Choral Public Domain Library. Edition may be freely distributed, duplicated, performed or recorded.
T:Copyright © 2015 by The Choral Public Domain Library. Edition may be freely distributed, duplicated, performed or recorded.
T:Copyright © 2015 by The Choral Public Domain Library. Edition may be freely distributed, duplicated, performed or recorded.
T:Copyright © 2015 by The Choral Public Domain Library. Edition may be freely distributed, duplicated, performed or recorded.
T:Copyright © 2015 by The Choral Public Domain Library. Edition may be freely distributed, duplicated, performed or recorded.
T:Copyright © 2015 by The Choral Public Domain Library. Edition may be freely distributed, duplicated, performed or recorded.
T:Copyright © 2015 by The Choral Public Domain Library. Edition may be freely distributed, duplicated, performed or recorded.
T:Copyright © 2015 by The Choral Public Domain Library. Edition may be freely distributed, duplicated, performed or recorded.
T:Copyright © 2015 by The Choral Public Domain Library. Edition may be freely distributed, duplicated, performed or recorded.
T:Copyright © 2015 by The Choral Public Domain Library. Edition may be freely distributed, duplicated, performed or recorded.
T:Copyright © 2015 by The Choral Public Domain Library. Edition may be freely distributed, duplicated, performed or recorded.
T:Copyright © 2015 by The Choral Public Domain Library. Edition may be freely distributed, duplicated, performed or recorded.
T:Copyright © 2015 by The Choral Public Domain Library. Edition may be freely distributed, duplicated, performed or recorded.
T:Copyright © 2015 by The Choral Public Domain Library. Edition may be freely distributed, duplicated, performed or recorded.
T:Copyright © 2015 by The Choral Public Domain Library. Edition may be freely distributed, duplicated, performed or recorded.
C:Josef Gruber (1855 - 1933)
Z:Copyright © 2015 by The Choral Public Domain Library. Edition may be freely distributed, duplicated, performed or recorded.
%%score { ( 1 3 ) | ( 2 4 ) } { ( 5 6 9 ) | ( 7 8 10 ) }
L:1/8
Q:1/4=80
M:4/4
K:C
V:1 treble nm="P1"
V:3 treble 
V:2 bass 
V:4 bass 
V:5 treble nm="P3"
V:6 treble 
V:9 treble 
V:7 bass 
V:8 bass 
V:10 bass 
V:1
"^sopr."!p! (A2 c4) B2 | A4 z2!<(! A2!<)! | (d2 c2!>(! B4)!>)! | A2 z2 z4 | z8 | z8 | z8 | z8 | %8
w: Ky- * ri-|e e-|lei- * *|son,|||||
w: ||||||||
!mf! (c2 A4) ^G2 | [CA]2 z2 z2!f! [Ae]2 | !^![Ad]4 [Ac]2 [Ac]2 |!>(! B8!>)! | A2 z2 z4 | z8 | %14
w: Ky- * ri-|e e-|lei- son, e-|lei-|son.||
w: ||||||
 z2"^sopr solo"!p! B4 BB | !^!c4 B2 z2 | z2"^alto solo"!p! ^G4 GG | z4 z2"^Tutti"!f! e2 | %18
w: Chri- ste e-|lei- son,|Chri- ste e-|e-|
w: ||||
 (e4 ^d4) | [^Ge]2 z2 z4 | (A2 c4) B2 | A4 z2 A2 | [Ad]4"^cresc." [Ac]2 [^GB]2 | (e2 d2) c2 c2 | %24
w: lei- *|son.|Ky- * ri-|e e-|lei- son, e-|lei- * son, e-|
w: ||||||
 (f2 e2) d4 |!ff! e4 d4 | [Ec]4 z2!mf! [GB]2 |!>(! A8!>)! | [EG]2 !^!G4 F2 | E4!p! (C2 D2) | E8- | %31
w: lei- * son,|Ky- ri-|e e-|lei-|son, Ky- ri-|e e- *|lei-|
w: |||||||
!>(! E8!>)! | E2 z2 z2!p! [^CE]2 |!>(!!<(! [DF]8!>)!!<)! | [^CE]4 z4 | z8 |][M:4/4][Q:1/4=120] z8 | %37
w: |son, e-|lei-|son.|||
w: ||||||
 z8 | z8 | z8 | z8 | z4!p! [CE]2 [CE]2 | (G4 A2) A2 | [EG]6 C2 | (F4 D2) D2 | [CE]4 E2 E2 | c4 B4 | %47
w: ||||Et in|ter- ra *|pax ho-|mi- ni- *|bus bo- nae|vo- lun-|
w: ||||||||||
!<(! A8!<)! | [E^G]4 z2!f! E2 | [EB]6 [EB]2 | [Ec]4 [Ac]2 [Ac]2 | [Bd]4 [Bd]2 [Bd]2 | %52
w: ta-|tis. Lau-|da- mus|Te, be- ne-|di- ci- mus|
w: |||||
 [ce]4!p!!p! c2 c2 | c6 c2 | c2!f! c2 [Af]2 [Ge]2 | d6 d2 | [Ec]4 z4 |!p! [FA]4 [FA]2 [FA]2 | %58
w: Te, ad- o-|ra- mus|Te, glo- ri- fi-||Te.|Gra- ti- as|
w: ||||||
 [Fc]4 F2 F2 | G8 | [FA]4 F2 F2 |"^cresc." ([Fd]2 [Ge]2 [Ff]2) [Ac]2 | [Gc]4 [FA]2 [FA]2 | G8 | %64
w: a- gi- mus|Ti-|bi pro- pter|ma- * * gnam|glo- ri- am|Tu-|
w: ||||||
 [EA]4 z4 | z8 | z8 | z8 | z8 | z2!f! [Fd]4 [Fd]2 | [Fc]4 [FA]2 [FA]2 | G6 G2 | [FA]4 z4 | %73
w: am.|||||De- us|Pa- ter om-|ni- po-|tens.|
w: |||||||||
 z2!mf!"^sopr." c4 cc | c2 c2 c2 d2 | e3 e e4 | z2!<(! e4!<)! e2 |!f! [Af]8 | [Gd]4 z4 | %79
w: Do- mi- ne|Fi- li u- ni-|ge- ni- te,|Je- su|Chri-|ste.|
w: ||||||
 [Gc]6 [Gc][Gc] | [Ac]4 [Ac]4 | z2 c4 c2 | [Gd]4 [Gd]4 | [Ge]4 [Gd]2 [Ec]2 | %84
w: Do- mi- ne|De- us,|A- gnus|De- i,|Fi- li- us|
w: |||||
!>(! ([GB]4 [^FA]2"^rit." [EG]2)!>)! | [^D^F]4 z4 | z8 | z8 | z8 | z8 | z4!p! [B,D]2 [B,D]2 | %91
w: Pa- * *|tris.|||||mi- se-|
w: |||||||
 [CE]6 [CE]2 |!<(! A8!<)! |!>(! [E^G]4!>)! z2!f!"^tutti" E2 | A4 A2 A2 | (d3 c B2) A2 | %96
w: re- re|no-|bis. Qui|tol- lis pec-|ca- * * ta|
w: |||||
!>(! G8!>)! | E4 z4 | z2!p! [FA]3 [FA] [FA]2 | [FA]3 [FA] [EG]2 [FA]2 |!<(! [F_B]4!<)! [FB]4 | %101
w: mun-|di:|sus- ci- pe|de- pre- ca- ti-|o- nem|
w: |||||
!>(! G8!>)! | [FA]2 z2 z2"^tutti"!f! A2 | A4 A2 A2 | A4 A2 =B2 | B8 | E4!p! [^GB]2 [GB]2 | %107
w: nos-|tram. Qui|se- des ad|dex- te- ram|Pa-|tris: mi- se-|
w: ||||||
 [Ac]4 [FB]4 | (A6 ^G2) | [EA]4 z4 |!f! [Ad]3 [Ad] [Ad]2 [Ad]2 | [Ae]4 [Af]4 | [Gd]8 | %113
w: re- re|no- *|bis.|Quo- ni- am Tu|so- lus|Sanc-|
w: ||||||
 [Ge]2 [Gc]2 [Gc]2 [Gc]2 |"^cresc." [Gc]3 [Gc] [Gc]4 | z2 [Gc]2 [Gc]2 [Gc][Gc] | [Ge]3 [Ge] [Ge]4 | %117
w: tus, Tu so- lus|Do- mi- nus,|Tu so- lus Al-|tis- si- mus,|
w: ||||
 z2!ff! [Ge]4 [Af]2 | (g4 e4) | [Gd]2 z2 z4 | z8 | z8 | z8 |!f! z8 | z8 | z2!f! c2 (e2 ^f2 | %126
w: Je- su|Chri- *|ste.||||||Cum San- *|
w: |||||||||
 g2) d2 c2 dc | B2 B2 (c2 d2 | e2) de f2 d2 | [^Ge]2 [Ee]2 [Ee]2 [Ee][Ee] | [Ee]4 [Ac]4 | %131
w: * cto Spi- ri- *|tu, cum San- cto||tu in glo- ri- a|De- i|
w: |* cum San- *|* cto _ Spi- ri-|tu * * * *||
 [Af]4 [Ge]4 | [Gd]8 | [Ge]4 c2!ff! c2 | [Ac]8 | [Gc]8 |][M:3/4]"^tutti"!f![Q:1/4=80] c2 AcBA | %137
w: Pa- tris.|A-|men, a- men,|a-|men.|Pa- trem om- ni- po-|
w: ||||||
 ^G2 A2 z A | !^!d2 c2 dc/d/ |!>(! e6!>)! | E4!f! [^GB][GB] | [Ac]4 [Ac][Ac] | %142
w: ten- tem, fac-|to- rem coe- li et|ter-|rae, vi- si-|bi- li- um|
w: |||||
 [^GB]>[GB] [GB]2 [GB][Ac] | (defe) (dc) | (c2 B2) B2 | [Gc]2 z2 z2 | z6 | z6 | z2!f! [Bd]2 [Gd]2 | %149
w: om- ni- um et in-|vi- * * * si- *|bi- * li-|um.|||Et ex|
w: |||||||
 [Ge][Ge] [Ge]2 [Ge]2 | [Af][Af] [Ge]2 [Bd][Bd] | (c2 B2) B2 | A2 z2 z2 |!f! A2 A2 [^GB]2 | %154
w: Pa- tre na- tum|an- te om- ni- a|sae- * cu-|la.|De- um de|
w: |||||
 [Ac]2 A2 z2 | [Ec]2 [Gc]2 [Gd]2 | [Ge]>[Ge] [Ge]2 z2 | z2 [Gd]2 [Ge]2 | [Af]4 [Ge][Ge] | dd d4 | %160
w: De- o,|lu- men de|lu- mi- ne,|De- um|ve- rum de|De- o ve-|
w: ||||||
 [Ec]2 z2 z2 | z6 | z6 | z6 | z6 | z6 | z6 | z6 | z2 z2!f!"^tutti" A2 | [Ad]2 [Ad]2 [Ad]2 | %170
w: ro.||||||||Qui|prop- ter nos|
w: ||||||||||
 [Ac]>[EB] [EA]2 z A | (f3 e) (dc) | [DB]2 [DB]2 [GB]2 | e2 ed cB | [GA]2"^dim." [GA]2 [GB]2 | %175
w: ho- mi- nes et|pro- * pter *|nos- tram sa-|lu- tem * de- *|scen- dit, de-|
w: |||||
 [Gc]2 [^Fc]2!p! [GB]2 | A6 | G2 z2"^rit." z2 |!mf! G2"^tutti" E2 E2 | C4 D2 | C2 z2 E2 | E3 D E2 | %182
w: scen- dit de|coe-|lis.|Et in- car-|na- tus|est de|Spi- ri- tu|
w: |||||||
 (G2!<)!!<(! A4) |!>(! G4!>)! z2 |!mf! c>c B2 G2 | !^!A4 A2 | G4 z2 | z2 z2!p! C2 | E4 E2 | %189
w: Sanc- *|to|ex Ma- ri- a|vir- gi-|ne|et|ho- mo|
w: |||||||
 F4!>(! F2!>)! | G4 z2 | z6 |!f! _e4 c2 | c2 B2 z2 | _e3 eec |"^rit." c2 B2 z [GB] | %196
w: fac- tus|est.||Cru- ci-|fi- xus|e- ti- am pro|no- bis sub|
w: |||||||
 [Gc]3 [_EG]!>(![CG][CG] | [F_A]2!>)! [FA]2 z2 |!p! [_EG]2 [EG]2 z2 | z2!pp! G2 G2 |"^dim." G4 G2 | %201
w: Pon- ti- o Pi-|la- to,|pas- sus|et se-|pul- tus|
w: |||||
 !fermata!G6 ||[K:Eb][M:4/4][Q:1/4=120] z8 | z8 |!f! [Gc]4 [Gc]3 [Gc] | [Ge]4 [Ge]4 | %206
w: est.|||Et re- sur-|re- xit|
w: |||||
!<(! [Ae]4 [cf]2!<)! [cf]2 | [=Bg]4 [Gd]2 [Gd]2 | [Ge]4 [Ac]2 [Ac]2 | [FB]8 | [GB]4 z4 | z8 | %212
w: ter- ti- a|di- e se-|cun- dum scrip-|tu-|ras,||
w: ||||||
!f! E4 (G3 A) | B4!<(! c2!<)! d2 |!ff! e8 | d4 [Gd]2 [Gd][Gd] ||[K:C] [Ge]6 [Ac][Ac] | (c4 B4) | %218
w: et a- *|scen- dit in|coe-|lum, se- det ad|dex- te- ram|Pa- *|
w: ||||||
 [Gc]2 z2 z2!f! A2 | A3 A A2 A2 | d3 c B2 G2 | [Ge]3"^cresc." [Ge] [Ge]2 [Ge][Ge] | [Ff]4 [Ff]4 | %223
w: tris. Et|i- te- rum ven-|tu- rus est cum|glo- ri- a ju- di-|ca- re|
w: |||||
!>(! _e6 d!>)!c |!p! ([GB]4 [^Fc]2) [Fc]2 | [GB]4!f! G2 G2 | [Ge]4 [Ac]!<(![Ad][Ae]!<)![cf] | %227
w: vi- vos et|mor- * tu-|os, cu- jus|reg- ni non e- rit|
w: ||||
!ff! g8 | [ce]2 z2 z4 | z4"^sopr."!mf! E2 E2 | A2 cc B2 A2 | d3 d c2 de | f2 e2 (d2 c2) | %233
w: fi-|nis.|Et in|Spi- ri- tum San- ctum|Do- mi- num, et vi-|vi- fi- can- *|
w: ||||||
 B4"^alto" B2 B2 | c2 c2 d2 d2 | e4 d2 c2 | B8 | A4 z4 |!mf! z8 |!mf! z4 d2 d2 | %240
w: tem, qui ex|Pa- tre Fi- li-|o- que pro-|ce-|dit.|||
w: ||||||Qui cum|
 [Ge]4 [Gc]2 [Gc]2 | [Gd]3 [Gd] [Gd]2 z2 | z4!p! G2 G2 | !^!_A4 (_E2 F2) | G4 G2!f! G2 | %245
w: Pa- tre et|Fi- li- o|si- mul|ad- o- *|ra- tur et|
w: Pa- tre et|Fi- li- o||||
 [Ec]2 [Gd]2 [Ge]2 [Gf]2 | [Gg]4 [Ge]2 cc | !^!c3 A A2 AA |"^rit."!<(! (E6!<)! [^D^F]2) | %249
w: con- glo- ri- fi-|ca- tur, qui lo-|cu- tus est per pro-|phe- *|
w: ||||
 !fermata![E^G]6!mf! E2 ||[M:3/4][Q:1/4=88] EA c2 BA | ^G>G A2 z A | d!<(!d cc d>d!<)! | %253
w: tas. Et|un- nam san- ctam ca-|tho- li- cam et|a- po- sto- li- cam ec-|
w: ||||
!>(! e4!>)! e2 | E4 z2 | z6 | z6 | z6 | z2 z2 [^GB][GB] | [Ac]>[Ac] [Ac][Ac] [Ac][Ac] | %260
w: cle- si-|am.||||et ex-|pe- cto re- sur- re- cti-|
w: |||||||
 [^GB]2 [GB]2!pp!!<(! [EG][EG]!<)! | A6 | [E^G]4 z2 ||[K:A][Q:1/4=120] z2 z2 z"^alto"!f! E | %264
w: o- nem mor- tu-|o-|rum.|Et|
w: ||||
 (EFGE FG | AB) c2!f! [Ac]2 | (cdec) (de) | f>f f2"^Solo"!mf! (f2 | e3 d) c2 | %269
w: vi- * * * * *|* * tam ven-|tu- * * * ri *|sae- cu- li, a-|* * men,|
w: |||||
"^Tutti" dc"^rit." B4 | A2 A2 A2 | A4 A2 |!ff! !fermata![Af]6 | [Ae]2 z2 z2 | z6 |] %275
w: a- men, a-|men, a- men,|a- men,|a-|men.||
w: ||||||
[K:C][M:4/4]!p![Q:1/4=70] ([CE]6 [B,D]2) | [CE]4 z4 |!mf! ([EG]4 [FA]4) | [EG]4 z4 | %279
w: San- *|ctus,|San- *|ctus,|
w: ||||
!f! [Gd]4 [Ge]4 | [Gd]3 [Gd] [Gd]4 | f6 e2 | [Ad]6 [Ad]2 | [^Ge]8 |!f! [Ae]4 [Ae]2 [Ae]2 | %285
w: San- ctus|Do- mi- nus|De- us|Sa- ba-|oth.|Ple- ni sunt|
w: ||||||
 [Af]4 [Af]2 [Af]2 | [Gd]8 | [Ge]4 z2 !^![ce]2- | [ce]4 [Bd]2 [Ac]2 | ([GB]4 [^FA]4) | %290
w: coe- li et|ter-|ra glo-|* ri- a|Tu- *|
w: |||||
 !fermata!G4 z4 | z8 | z8 | z8 |!f! z8 | z4!f! z2 c2 | e2 A2 d2 c2 | (B3 A) G2 (AB) | %298
w: a.||||||sis, in _ ex-|cel- * sis, ho- *|
w: |||||Ho-|san- na in ex-|cel- * sis, * *|
 [Ec]2 [Af]2 [Gd]2 [Gd]2 | (c3 d) e2 ee | d8 | [Ec]4 [EG]2 [EG]2 | (A4 c2 d2) | [Ge]4 z4 | z8 || %305
w: san- na in ex-|cel- * sis, in ex-|cel-|sis, in ex-|cel- * *|sis.||
w: |||||||
[K:G] z8 | z8 | z8 | z8 | z8 |"^sopr solo"!mf! (B4 c2) B2 | (A2 B2) G2 G2 |!<(! (G6!<)! A2) | %313
w: |||||Be- * ne-|di- * ctus, qui|ve- *|
w: ||||||||
 B4 z2 B2 | (B2 e2) e2 d2 | d3 B d2 d2 | (e2 g2) g2 g2 | f3 e d2 d2 | d2 dd e2 e2 | d2 z2 z4 | %320
w: nit in|no- * mi- ne|Do- mi- ni, in|no- * mi- ne|Do- mi- ni, in|no- mi- ne Do- mi-|ni,|
w: |||||||
"^Tutti"!mf! G6 A2 |!<(! B4 B2!<)! B2 | (d6 c2) | B4 z2 [GB]2 | [Ge]4 [FA]2 [FA]2 | (d4 c2) B2 | %326
w: Be- ne-|dic- tus, qui|ve- *|nit in|no- mi- ne|Do- * mi-|
w: ||||||
 [FA]4 z2 [FA]2 | [FB]4 [EG]2 [EG]2 |!>(! ([FA]4 [EG]2)!>)! [^DF]2 | E4 z2 E2 |!f! c4 B2 E2 | %331
w: ni, in|no- mi- ne|Do- * mi-|ni: Ho-|san- na, ho-|
w: |||||
 A4 G2 [DG][DG] | (G4 F4) | G4 z2 G2 | !^!e4 d2 D2 | !^!c4 B2 BB |!>(! A8!>)! | [DG]4 z4 | z8 | %339
w: san- na in ex-|cel- *|sis, ho-|san- na, ho-|san- na in ex-|cel-|sis.||
w: ||||||||
 z8 | z8 | z8 |][K:C][M:4/4][Q:1/4=70] z8 |"^sopr solo"!mf! (c4 B2) A2 | (G2 F2) E2 E2 | %345
w: ||||A- * gnus|De- * i, qui|
w: ||||||
 (E2 A2) A2 G2 |!<(! (G2!<)! e4) d2 |!>(! c4!>)! B2 z2 | z4!mf! [^GB]2 [GB]2 | %349
w: tol- * lis pec-|ca- * ta|mun- di:|mi- se-|
w: ||||
 ([Ac]4 [Ge]2) [Ad]2 | (c4 B4) | [Gc]4 z4 | z8 |"^alto solo" (A4 G2) F2 |!<(! (F6!<)! G2) | %355
w: re- * re|no- *|bis.||A- * gnus|De- *|
w: ||||||
 A4 z2 F2 | (F2 _B2) B2 A2 | (A2 G2 F2) G2 | A8 | A4 z4 | z4!p! [^CE]2 [CE]2 | (F4 A2) G2 | %362
w: i, qui|tol- * lis pec-|ca- * * ta|mun-|di:|mi- se-|re- * re|
w: |||||||
 ([DF]4 [^CE]4) | D2 z2 z4 | z8 |!f! (c4 B2) A2 | (G2 F2) E2 E2 | (E2 A2) A2 G2 | (G2 e4) d2 | %369
w: no- *|bis.||A- * gnus|De- * i, qui|tol- * lis pec-|ca- * ta|
w: |||||||
!>(! [Gc]4!>)! [GB]2 z2 | z4!p! G2 G2 | ([Ec]2 [GB]2 [FA]2) [EG]2 |"^dim." [DG]8 | [CE]4 E2 E2 | %374
w: mun- di:|do- na|no- * * bis|pa-|cem, do- na|
w: |||||
 A4 A4 | G8 | C6 z2 | z8 | z8 | z8 | z8 |] %381
w: no- bis|pa-|cem.|||||
w: |||||||
V:2
 z8 | z8 | z8 | z8 |"^bass"!p! E,2 G,4 ^F,2 | E,4 z2!<(! E,2 | A,2!<)! G,2!>(! ^F,4!>)! | %7
w: |||||||
w: |||||||
w: ||||Ky- * ri-|e e-|lei- * *|
w: |||||||
 E,2 z2 z4 |!mf! A,2 C4 B,2 | A,2 z2 z2!f! C2 | !^!F4 E2!mf! E2 |!>(! F4!>)! E2 D2 | %12
w: |||||
w: |||||
w: son,|Ky- * ri-|e, *||lei- * *|
w: |||||
 [A,,C]2 z2 z4 | z8 | z8 | z8 | z2"^ten solo"!p! B,4 B,B, |!f! !^!C4 B,2"^Tutti"!f! B,2 | %18
w: ||||||
w: ||||||
w: son.|||||* Chri- ste|
w: ||||||
 [B,,B,]8 | [E,B,]2 z2 z4 | A,2 C4 B,2 | A,4 z2 A,2 | [F,A,]4"^cresc." [E,A,]2 [D,E]2 | E4 E2 E2 | %24
w: ||||||
w: ||||||
w: lei-|son.|Ky- * ri-|e e-|lei- son, e-|lei- son, e-|
w: ||||||
 D2 C2 B,4 |!ff! G,2 C2 B,4 | [A,C]4 z2!mf! [E,C]2 |!>(! [F,C]8!>)! | [C,C]2 !^!G,4 F,2 | %29
w: |||||
w: |||||
w: lei- * son,|Ky- * ri-|e e-|lei-|son, Ky- ri-|
w: |||||
 E,4!p! C,2 D,2 | E,8- |!>(! E,8!>)! | E,2 z2 z2!p! [A,,A,]2 |!<(!!>(! [D,A,]8!<)!!>)! | %34
w: |||||
w: |||||
w: e e- *|lei-||son, e-|lei-|
w: |||||
 [A,,A,]4 z4 | z8 |][M:4/4] z8 | z8 | z8 | z8 | z8 | z4!p! [C,G,]2 [C,G,]2 | [E,C]4 [F,C]4 | %43
w: |||||||||
w: |||||||||
w: son.|||||||Et in|ter- ra|
w: |||||||||
 [C,C]6 [E,G,]2 | [D,A,]4 G,4 | [C,G,]4 E,2 E,2 | [A,,A,]4 [E,G,]4 |!<(! [F,A,]8!<)! | %48
w: |||||
w: |||||
w: pax ho-|mi- ni-|bus bo- nae|vo- lun-|ta-|
w: |||||
 [E,B,]4 z2!f! [E,E]2 | [^G,E]6 [G,E]2 | [A,E]4 [A,E]2 [A,E]2 | G4 G2 G2 | [C,G]4 C2 C2 | C6 C2 | %54
w: ||||||
w: ||||||
w: tis. Lau-|da- mus|Te, be- ne-|di- ci- mus|Te, ad- o-|ra- mus|
w: ||||||
 C2!f! C2 [F,C]2 [C,C]2 | [F,C]4 [G,B,]4 | [C,C]4 z4 |!p! [F,C]4 [F,C]2 [F,C]2 | %58
w: ||||
w: ||||
w: Te, glo- ri- fi-|ca- mus|Te.|Gra- ti- as|
w: ||||
 [F,A,]4 [_B,D]2 [A,C]2 | C8 | [F,C]4 z4 |"^cresc." [_B,D]2 [B,C]2 [A,C]2 [F,C]2 | %62
w: ||||
w: ||||
w: a- gi- mus|Ti-|bi|prop- ter ma- gnam|
w: ||||
 [E,C]4 [F,C]2 [A,C]2 | [_B,D]8 | [A,^C]4 z4 |"^tutti"!f! A,6 A,A, | =C4 C4 | z2 C4 C2 | A,4 A,4 | %69
w: |||||||
w: |||||||
w: glo- ri- am|Tu-|am.|Do- mi- ne|De- us,|Rex coe-|les- tis,|
w: |||||||
 z2 _B,4 B,2 | [F,A,]4 [F,C]2 [F,C]2 | C4 [C,C]4 | [F,C]4 z4 | z8 | z8 | z8 | %76
w: |||||||
w: |||||||
w: De- us|Pa- ter om-|ni- po-|tens.||||
w: |||||||
 z2 [E,B,]2!<(! [A,^C]2!<)! [A,C]2 |!f! D6 C2 | [G,B,]4 z4 | [C,E]6 [E,C][E,C] | [F,C]4 [F,C]4 | %81
w: |||||
w: |||||
w: Je- * su|Chri- *|ste.|Do- mi- ne|De- us,|
w: |||||
 z2 C4 C2 | [G,B,]4 [G,B,]4 | C4 B,2 A,2 |"^rit.""^rit."!>(! B,8!>)! | B,4 z4 | %86
w: |||||
w: |||||
w: A- gnus|De- i,|Fi- li- us|Pa-|tris.|
w: |||||
 z4 z2!p!"^tutti" E,2 | E,4 E,2 E,2 | A,3 B, C2 G,2 |!>(! A,8!>)! | G,4 z4 | z8 | z8 | %93
w: |||||||
w: |||||||
w: Qui|tol- lis pec-|ca- * * ta|mun-|di.|||
w: |||||||
 z4 z2!f! E,2 | A,4 A,2 A,2 | D3 C B,2 A,2 |!>(! G,8!>)! | E,4 z4 | z2!p! [F,C]3 [F,C] [F,C]2 | %99
w: ||||||
w: ||||||
w: Qui|tol- lis pec-|ca- * * ta|mun-|di:|sus- ci- pe|
w: ||||||
 [F,C]3 [F,C] [C,C]2 [F,C]2 |!<(! [_B,D]4!<)! [_B,,D]4 |!>(! [C,C]8!>)! | %102
w: |||
w: |||
w: de- pre- ca- ti-|o- nem|nos-|
w: |||
 [F,C]2 z2 z2"^tutti"!f! A,2 | A,4 A,2 A,2 | A,4 A,2 =B,2 | B,8 | E,4!p! [E,E]2 [E,E]2 | %107
w: |||||
w: |||||
w: tram. Qui|se- des ad|dex- te- ram|Pa-|tris: mi- se-|
w: |||||
 [A,,E]4 [D,D]4 | C4 B,4 | [A,,^C]4 z4 |!f! [D,F]3 [D,F] [D,F]2 [F,D]2 | ^C4 D2 =C2 | C4 B,4 | %113
w: ||||||
w: ||||||
w: re- re|no- *|bis.|Quo- ni- am Tu|so- lus *|Sanc- *|
w: ||||||
 [C,C]2 [CE]2 [CE]2 [CE]2 |"^cresc." [CE]3 [CE] [CE]4 | z2 [CE]2 [CE]2 [CE][CE] | %116
w: |||
w: |||
w: tus, Tu so- lus|Do- mi- nus,|Tu so- lus Al-|
w: |||
 [_B,C]3 [B,C] [B,C]4 | z2!ff! [_B,C]4 [A,C]2 | [=B,D]4 C4 | B,2!f! z2 z4 | z8 | z2!f! C2 E2 ^F2 | %122
w: ||||||
w: ||||||
w: tis- si- mus,|Je- su|Chri- *|ste.||Cum Sanc- *|
w: ||||||
 G2 D2 C2 DC | B,2 C2 CFED | E2 C4 B,2 | C2 ED C4- | C2 B,2 A,2 A,2 | G,2 F2 E2 D2 | %128
w: ||||||
w: ||||||
w: * to Spi- ri- *|tu, cum San- * cto *|Spi- * ri-|tu, cum * San-|* cto Spi- ri-|tu, cum San- *|
w: ||||||
 C2 B,2 C2 B,2 | [E,B,]2 [E,^G,]2 [^F,A,]2 [G,B,][G,B,] | [A,C]4 [A,E]4 | D2 A,2 C2 C2 | C4 B,4 | %133
w: |||||
w: |||||
w: * cto Spi- ri-|tu in glo- ri- a|De- i|Pa- * * tris,|A- *|
w: |||||
 [C,C]4 C2 C2 |!ff! C4 F4 | [C,E]8 |][M:3/4]"^tutti"!f! C2 A,CB,A, | ^G,2 A,2 z A, | %138
w: |||||
w: |||||
w: men, a- men,|a- *|men.|Pa- trem om- ni- po-|ten- tem, fac-|
w: |||||
 !^!D2 C2 DC/D/ |!>(! E6!>)! | E,4!f! [E,E][E,E] | [A,E]4 [A,E][A,E] | %142
w: ||||
w: ||||
w: to- rem coe- li et|ter-|rae, vi- si-|bi- li- um|
w: ||||
 [E,E]>[E,E] [E,E]2 [E,E][A,E] | DCB,C D2 | [G,D]4 [G,,D]2 | [C,E]2!mf! C,"^tutti"C, E,E, | %146
w: ||||
w: ||||
w: om- ni- um et in-|vi- * * * si-|bi- li-|um. Et in u- num|
w: ||||
 G,G,/G,/ G,G, G,G, | A,A,/A,/!<(! A,A,!<)! A,!>)!!>(!A, | G,>G, G,2!f! [G,B,][G,B,] | %149
w: |||
w: |||
w: Do- mi- num Je- sum Chri- stum,|Fi- li- um De- i u- ni-|ge- ni- tum. Et ex|
w: |||
 C[C,C] C2 C2 | [F,C][F,C] [C,C]2 [D,F][D,F] | [E,E]4 [E,D]2 | [A,C]2 z2 z2 |!f! A,2 A,2 [E,E]2 | %154
w: |||||
w: |||||
w: Pa- tre na- tum|an- te om- ni- a|sae- cu-|la.|De- um de|
w: |||||
 [A,E]2 [A,C]2 z2 | [C,G,]2 [E,C]2 [G,B,]2 | [C,C]>[C,C] [C,C]2 z2 | z2 [G,B,]2 C2 | %158
w: ||||
w: ||||
w: De- o,|lu- men de|lu- mi- ne,|De- um|
w: ||||
 [F,C]4 [C,C][C,C] | CC C2 B,2 | [C,C]2 z2 z2 |!mp! A,3"^bass" A,A,A, | C2 C2 z2 | F,>F, F,F,G,G, | %164
w: ||||||
w: ||||||
w: ve- rum de|De- o ve- *|ro.|ge- ni- tum non|fa- ctum,|con- sub- stan- ti- a- lem|
w: ||||||
 A,2 A,2 z2 |!f! D2 C2 A,2 | A,G,/F,/ E,3 E, | D,2 z2 z2 | z2 z2"^tutti"!f! A,2 | %169
w: |||||
w: |||||
w: Pa- tri,|per _ quem|om- ni- a fa- cta|sunt.|Qui|
w: |||||
 [D,F]2 [F,F]2 [D,F]2 | [A,E]>[A,D] [A,C]2 z A, | [D,D]3 [E,C] [F,B,][^F,A,] | G,2 B,2 G,2 | %173
w: ||||
w: ||||
w: prop- ter nos|ho- mi- nes et|pro- * pter *|nos- tram sa-|
w: ||||
 [C,C]2 [C,E]2 [C,E]2 | E2"^dim." E2 E2 | E2 D2!p! D2 | D4 C2 | [G,,B,]2 z2"^rit." z2 | z6 | z6 | %180
w: |||||||
w: |||||||
w: lu- tem des-|cen- dit, des-|cen- dit de|coe- *|lis.|||
w: |||||||
 z6 | z6 | z6 | z6 | z6 | z6 | z6 | z6 | z6 | z6 | z6 |!f! z6 |"^tutti" _E4 C2 | C2 B,2 z2 | %194
w: ||||||||||||||
w: ||||||||||||||
w: ||||||||||||Cru- ci-|fi- xus|
w: ||||||||||||||
 _E3 EEC | C2 B,2 z [G,D] | [_E,C]3 [E,C]!>(![E,C][E,C] | [F,C]2!>)! [F,C]2 z2 | %198
w: ||||
w: ||||
w: e- ti- am pro|no- bis sub|Pon- ti- o Pi-|la- to,|
w: ||||
!p! [C,C]2 [C,C]2 z2 | z2!pp! G,2 G,2 |"^dim." G,4 G,2 | !fermata!G,6 ||[K:Eb][M:4/4] z8 | z8 | %204
w: ||||||
w: ||||||
w: pas- sus|et se-|pul- tus|est.|||
w: ||||||
!f! [C,E]4 [E,E]3 [G,E] | C4 C4 |!<(! [A,C]4 [A,C]2!<)! [A,C]2 | [G,D]4 [G,=B,]2 [G,B,]2 | %208
w: ||||
w: ||||
w: Et re- sur-|re- xit|ter- ti- a|di- e se-|
w: ||||
 [C,C]4 [A,,E]2 [A,E]2 | E4 D4 | [E,E]4 z4 | z8 |!f! E,4 G,3 A, | B,4!<(! C2!<)! D2 |!ff! E8 | %215
w: |||||||
w: |||||||
w: cun- dum scrip-|tu- *|ras,||et a- *|scen- dit in|coe-|
w: |||||||
 D4 [G,=B,]2 [G,B,][G,B,] ||[K:C] C6 CD | D8 | [C,E]2 z2 z2!f! A,2 | A,3 A, A,2 A,2 | %220
w: |||||
w: |||||
w: lum, se- det ad|dex- te- ram|Pa-|tris. Et|i- te- rum ven-|
w: |||||
 D3 C B,2 G,2 | [C,C]3"^cresc." [C,C] [C,C]2 [_B,C][B,C] | [_A,C]4 [A,C]4 |!>(! C6!>)! DD | %224
w: ||||
w: ||||
w: tu- rus est cum|glo- ri- a ju- di-|ca- re|vi- vos et|
w: ||||
!p! D4 _E2 E2 | [G,D]4!f! [G,B,]2 [G,B,]2 | C4 [A,C]!<(![A,C][A,C]!<)![A,C] |!ff! [G,D]8 | %228
w: ||||
w: ||||
w: mor- * tu-|os, cu- jus|reg- ni non e- rit|fi-|
w: ||||
 [C,C]2 z2 z4 | z8 | z8 | z8 | z8 | z8 | z8 | z8 | z8 |!mf! z8 | z4!mf! C2 C2 | C4 B,2 B,2 | %240
w: ||||||||||||
w: ||||||||||||
w: nis.|||||||||||* * cum|
w: ||||||||||||
 [C,C]4 [E,C]2 [E,C]2 | [G,B,]3 [G,B,] [G,B,]2 z2 | z4!p! G,2 G,2 | !^!_A,4 _E,2 F,2 | %244
w: ||||
w: ||||
w: Pa- tre et|Fi- li- o|si- mul|ad- o- *|
w: ||||
 G,4 G,2!f! G,2 | C2 B,2 C2 D2 | [C,E]4 C2 CC | !^!C3 A, A,2 A,A, |"^rit." E,6 [B,,B,]2 | %249
w: |||||
w: |||||
w: ra- tur et|con- glo- ri- fi-|ca- tur, qui lo-|cu- tus est per pro-|phe- *|
w: |||||
 !fermata![E,B,]6!mf! E,2 ||[M:3/4] E,A, C2 B,A, | ^G,>G, A,2 z A, | D!<(!D CC D>D!<)! | %253
w: ||||
w: ||||
w: tas. Et|u- nam san- ctam ca-|tho- li- cam et|a- po- sto- li- cam ec-|
w: ||||
!>(! E4!>)! E2 | E,4"^tutti" E,2 | !^!F,>E, E,!<(!E, ^G,!<)!B, | !^!C2 B,2 B,C | DC B,>A, G,F, | %258
w: |||||
w: |||||
w: cle- si-|am. Con-|fi- te- or u- num bap-|tis- ma in re-|mis- si- o- nem pec- ca-|
w: |||||
 E,2 E,2 EE | ^D>D DD DD | E2 E2!pp! B,!<(!B,!<)! |!>(! [E,C]6!>)! | [E,B,]4 z"^tenor"!f! E, || %263
w: |||||
w: |||||
w: to- rum, et ex-|pe- cto re- sur- re- cti-|o- nem mor- tu-|o-|rum. Et|
w: |||||
[K:A] A,B,CA,B,C | D2 D2 D2 | CB, A,2!f! [A,E]2 | EDCE =G2 | F>D"^ten solo"!mf! D2 D2 | E3 ^E F2 | %269
w: ||||||
w: ||||||
w: vi- * * * * *|* tam, et|vi- * tam ven-|tu- * * * ri|sae- cu- li, a-|* * men,|
w: ||||||
"^Tutti"!f! [B,,F][B,,F] [E,D]4 | [A,C]2 z2 z2 | A,4!ff! A,2 | !fermata![D,D]6 | [A,C]2 z2 z2 | %274
w: |||||
w: |||||
w: a- men, a-|men,|a- men,|a-|men.|
w: |||||
 z6 |][K:C][M:4/4]!p! G,8 | [C,G,]4 z4 |!mf! C8 | C4!f! z4 | [G,B,]4 [C,C]4 | %280
w: ||||||
w: ||||||
w: ||||||
w: ||||||
 [G,B,]3 [G,B,] [G,B,]4 | D4 C4 | C4 B,2 A,2 | [E,B,]8 |!f! [A,^C]4 [A,C]2 [A,C]2 | %285
w: |||||
w: |||||
w: |||||
w: |||||
 [D,D]4 [D,D]2 [D,D]2 | [G,B,]8 | [C,C]4 z4 | [D,^F,]4 [E,G,]2 [F,A,]2 | B,2 C2 D2 C2 | %290
w: |||||
w: |||||
w: |ter-|ra|glo- ri- a|Tu- * * *|
w: |||||
 !fermata![G,B,]4 z2!f!"^bass" G,2 | A,2 D,2 G,2 F,2 | z2!f! C2 E2 A,2 | D2 C2 B,3 A, | %294
w: ||||
w: ||||
w: a. Ho-|san- na in ex-|||
w: ||Ho- san- na|in ex- cel- *|
 B,2 ED C2 DC | B,2 CD E2 z2 | z8 | z4 z2!f! [G,D]2 | C2 DC B,2 B,2 | %299
w: |||||
w: |||||
w: |||ho-|san- na * in ex-|
w: sis, in _ _ ex- *|cel- * * sis,||||
 [E,C]3 [D,B,] [C,C]2 [C,C][E,C] | [F,C]4 [G,B,]4 | [C,C]4 [C,C]2 [C,C]2 | C4 A,2 B,2 | [C,C]4 z4 | %304
w: |||||
w: |||||
w: cel- * sis, in ex-|cel- *|sis, in ex-|cel- * *|sis.|
w: |||||
 z8 ||[K:G] z8 | z8 | z8 | z8 | z8 | z8 | z8 | z8 | z8 | z8 | z8 | z8 | z8 | z8 | z8 | %320
w: ||||||||||||||||
w: ||||||||||||||||
w: ||||||||||||||||
w: ||||||||||||||||
!mf!"^Tutti" G,6 A,2 |!<(! B,4 B,2!<)! B,2 | D6 C2 | B,4 z2 [G,D]2 | C4 [CD]2 [CD]2 | D6 D2 | %326
w: ||||||
w: ||||||
w: Be- ne-|dic- tus, qui|ve- *|nit in|no- mi- ne|Do- mi-|
w: ||||||
 D4 z2 D2 | [B,,^D]4 [E,E]2 [E,B,]2 | C4!>(! B,2!>)! A,2 | G,4 z2 E,2 |!f! C4 B,2 E,2 | %331
w: |||||
w: |||||
w: ni, in|no- mi- ne||* Ho-|san- na, ho-|
w: |||||
 A,4 G,2 [B,,G,][B,,G,] | [D,A,]8 | [G,B,]4 z4 | z8 | z4 z2 [E,E][E,E] | E4!>(! D2!>)! C2 | %337
w: ||||||
w: ||||||
w: san- na in ex-|cel-|sis,||in ex-|cel- * *|
w: ||||||
 [G,,B,]4 z4 | z8 | z8 | z8 | z8 |][K:C][M:4/4] z8 | z8 | z8 | z8 | z8 | z4!mf!"^bass" E,2 E,2 | %348
w: |||||||||||
w: |||||||||||
w: sis.||||||||||Mi- se-|
w: |||||||||||
 z4!mf! E2 E2 | E4 C3 D | E4 D4 | [C,E]4 z4 | z8 | z8 | z8 | z8 | z8 | z8 | z8 |!p! z8 | %360
w: ||||||||||||
w: ||||||||||||
w: re *|no- * *||bis.|||||||||
w: ||||||||||||
 z4!p! A,2 A,2 | A,6 _B,2 | A,6 G,2 | [D,F,]2 z2 z4 | z8 |!f! C4 B,2 A,2 | G,2 F,2 E,2 E,2 | %367
w: |||||||
w: |||||||
w: re *|no- *||bis.||A- * gnus|De- * i, qui|
w: |||||||
 [A,C]4 [B,D]2 [B,D]2 | C2- C4 D2 |!>(! [G,E]4!>)! [G,D]2 z2 | z4!p! G,2 G,2 | C6"^dim." C2 | %372
w: |||||
w: |||||
w: tol- lis pec-|ca- * ta|mun- di:|do- na|no- bis|
w: |||||
 C4 B,4 | [A,,C]4 E,2 E,2 | A,4 A,4 | G,8 | C,6 z2 | z8 | z8 | z8 | z8 |] %381
w: |||||||||
w: |||||||||
w: pa- *|cem, do- na|no- bis|pa-|cem.|||||
w: |||||||||
V:3
 x8 | x8 | x8 | x8 | x8 | x8 | x8 | x8 | E6 D2 | x8 | x8 | (A4 ^G4) | x8 | x8 | x8 | x8 | x8 | %17
w: |||||||||||||||||
 !^!A4 ^G2 G2 | ^F8 | x8 | x8 | x8 | x8 | A2 B2 c2 A2 | A4 B4 | (c2 G4) F2 | x8 | (G4 F4) | x8 | %29
w: ||||||||||||
 x8 | x8 | x8 | x8 | x8 | x8 | x8 |][M:4/4] x8 | x8 | x8 | x8 | x8 | x8 | C4 C4 | x8 | C4 B,4 | %45
w: ||||||||||||||||
 x8 | E6 D2 | (C6 D2) | x8 | x8 | x8 | x8 | x8 | x8 | x8 | A4 (G2 F2) | x8 | x8 | x8 | (F4 E4) | %60
w: ||||||||||ca- mus *|||||
 x8 | x8 | x8 | (F4 E2 D2) | x8 | x8 | x8 | x8 | x8 | x8 | x8 | F4 E4 | x8 | x8 | x8 | x8 | %76
w: ||||||||||||||||
 x2 (^G2 A2) A2 | x8 | x8 | x8 | x8 | x2 (A2 G2) G2 | x8 | x8 | x8 | x8 | x8 | x8 | x8 | x8 | x8 | %91
w: |||||||||||||||
 x8 | (C2 F2 E2 D2) | x8 | x8 | x8 | x8 | x8 | x8 | x8 | x8 | (F4 E4) | x8 | x8 | x8 | x8 | x8 | %107
w: ||||||||||||||||
 x8 | E8 | x8 | x8 | x8 | x8 | x8 | x8 | x8 | x8 | x8 | G8 | x8 | x8 | x8 | x8 | z2 G2 (A2 B2 | %124
w: ||||||||||||||||Cum San- *|
 c2) G2 F2 GF | E2 G2 (G2 A2 | G2) G2 G2 ^F2 | G2 G2 G2 G2 | (G4 A2) G2 | x8 | x8 | x8 | x8 | x8 | %134
w: * cto Spi- ri- *|tu, * * *|||Spi- * ri-||||||
 x8 | x8 |][M:3/4] x6 | x6 | x6 | x6 | x6 | x6 | x6 | A4 A2 | G4 G2 | x6 | x6 | x6 | x6 | x6 | x6 | %151
w: |||||||||||||||||
 A4 ^G2 | x6 | x6 | x6 | x6 | x6 | x6 | x6 | AA (G3 F) | x6 | x6 | x6 | x6 | x6 | x6 | x6 | x6 | %168
w: |||||||||||||||||
 x6 | x6 | x6 | A4 D2 | x6 | G2 G2 G2 | x6 | x6 | (G2 ^FE F2) | x6 | x6 | x6 | x6 | x6 | x6 | x6 | %184
w: ||||||||||||||||
 x6 | x6 | x6 | x6 | x6 | x6 | x6 | x6 | x6 | x6 | x6 | x6 | x6 | x6 | x6 | x6 | x6 | x6 || %202
w: ||||||||||||||||||
[K:Eb][M:4/4] x8 | x8 | x8 | x8 | x8 | x8 | x8 | x8 | x8 | x8 | x8 | x8 | x8 | x8 ||[K:C] x8 | G8 | %218
w: ||||||||||||||||
 x8 | x8 | x8 | x8 | x8 | (G2 c_B _A2) AA | x8 | x8 | x8 | (c4 B4) | x8 | x8 | x8 | x8 | x8 | %233
w: |||||||||||||||
 z4 ^G2 G2 | A2 A2 B2 B2 | (c3 B) A2 A2 | (A6 ^G2) | x8 | z4 E2 E2 | G4 D2 G2 | x8 | x8 | x8 | x8 | %244
w: |||||Qui cum|Pa- tre cum|||||
 x8 | x8 | x8 | x8 | x8 | x8 ||[M:3/4] x6 | x6 | x6 | x6 | x6 | x6 | x6 | x6 | x6 | x6 | x6 | %261
w: |||||||||||||||||
 (E4!>)!!>(! ^D2) | x6 ||[K:A] x6 | x6 | x6 | (cB A2) A2 | A>A A2 (A2 | G4) A2 | AA (A2 G2) | x6 | %271
w: ||||||||||
 x6 | x6 | x6 | x6 |][K:C][M:4/4] x8 | x8 | x8 | x8 | x8 | x8 | G4 G4 | x8 | x8 | x8 | x8 | x8 | %287
w: ||||||||||||||||
 x4 x2 x2 | x8 | x8 | x8 | x8 | x8 | x8 | z2 G2 A2 D2 | G2 F2 (E3 D) | C2 (FE D2) (EF) | G4 G2 F2 | %298
w: |||||||Ho- san- na||||
 x8 | G4 G2 GG | (A4 G2 F2) | x8 | (F4 A4) | x8 | x8 ||[K:G] x8 | x8 | x8 | x8 | x8 | x8 | x8 | %312
w: ||||||||||||||
 x8 | x8 | x8 | x8 | x8 | x8 | x8 | x8 | x8 | x8 | x8 | x8 | x8 | (G2 D2 F2) G2 | x8 | x8 | x8 | %329
w: |||||||||||||||||
 x8 | x8 | x8 | D8 | D4 z2 G2 | (G2 A2) B2 D2 | (E2 F2) G2 GG | (G6 F2) | x8 | x8 | x8 | x8 | x8 |] %342
w: |||||||||||||
[K:C][M:4/4] x8 | x8 | x8 | x8 | x8 | x8 | x8 | x8 | G8 | x8 | x8 | x8 | x8 | x8 | x8 | x8 | x8 | %359
w: |||||||||||||||||
 x8 | x8 | D6 E2 | x8 | x8 | x8 | x8 | x8 | E4 D2 D2 | (E2 G2 A2) A2 | x8 | x8 | x8 | x8 | x8 | %374
w: |||||||||||||||
 x8 | x8 | x8 | x8 | x8 | x8 | x8 |] %381
w: |||||||
V:4
 x8 | x8 | x8 | x8 | x8 | x8 | x8 | x8 | A,4 E,4 | F,2 z2 z4 | z4 z2 A,2 | D,4 E,4 | x8 | x8 | x8 | %15
w: |||||||||||||||
w: |||||||||||||||
w: |||||||||||||||
 x8 | x8 | z2 E,4 E,E, | x8 | x8 | x8 | x8 | x8 | C,2 B,,2 A,,2 G,2 | F,4 G,4 | C,4 G,2 G,2 | x8 | %27
w: ||||||||||||
w: ||||||||||||
w: ||||||||||||
 x8 | x8 | x8 | x8 | x8 | x8 | x8 | x8 | x8 |][M:4/4] x8 | x8 | x8 | x8 | x8 | x8 | x8 | x8 | x8 | %45
w: ||||||||||||||||||
w: ||||||||||||||||||
w: ||||||||||||||||||
 x8 | x8 | x8 | x8 | x8 | x8 | G,2 F,2 E,2 D,2 | x8 | x8 | x8 | x8 | x8 | x8 | x8 | G,4 C4 | x8 | %61
w: ||||||||||||||||
w: ||||||||||||||||
w: ||||||||||||||||
 x8 | x8 | x8 | x8 | x8 | x8 | x8 | x8 | x8 | x8 | x8 | x8 | x8 | x8 | x8 | x8 | D,8 | x8 | x8 | %80
w: |||||||||||||||||||
w: |||||||||||||||||||
w: |||||||||||||||||||
 x8 | x2 F,2 E,2 E,2 | x8 | C,4 G,2 A,2 | E,4 ^F,2 G,2 | x8 | x8 | x8 | x8 | x8 | x8 | x8 | x8 | %93
w: |||||||||||||
w: |||||||||||||
w: |||||||||||||
 x8 | x8 | x8 | x8 | x8 | x8 | x8 | x8 | x8 | x8 | x8 | x8 | x8 | x8 | x8 | E,8 | x8 | x8 | %111
w: ||||||||||||||||||
w: ||||||||||||||||||
w: ||||||||||||||||||
 A,4 D,4 | G,8 | x8 | x8 | x8 | x8 | x8 | x8 | G,2 G,2 A,2 B,2 | C2 G,2 F,2 G,F, | %121
w: ||||||||||
w: ||||||||||
w: ||||||||* Cum Sanc- *|* to Spi- ri- *|
 E,2 E,D, C,2 C2- | C2 B,2 A,2 ^F,2 | G,2 E,2 F,2 G,2 | C,2 E,2 D,2 G,,2 | C,2 z2 z4 | z8 | %127
w: ||||||
w: ||||||
w: ||||||
 z2 G,2 A,2 B,2 | C2 G,2 F,2 G,F, | x8 | x8 | D,4 E,2 F,2 | G,8 | x8 | F,8 | x8 |][M:3/4] x6 | x6 | %138
w: |||||||||||
w: |||||||||||
w: |||||||||||
 x6 | x6 | x6 | x6 | x6 | F,E,D,E, F,^F, | x6 | x6 | x6 | x6 | x6 | x6 | x6 | x6 | x6 | x6 | x6 | %155
w: |||||||||||||||||
w: |||||||||||||||||
w: |||||||||||||||||
 x6 | x6 | x6 | x6 | F,F, G,4 | x6 | x6 | x6 | x6 | x6 | x6 | x6 | x6 | x6 | x6 | x6 | x6 | %172
w: |||||||||||||||||
w: |||||||||||||||||
w: |||||||||||||||||
 G,2 G,F, E,D, | x6 | C,D, E,D, C,B,, | A,,2 A,,2 B,,C, | D,6 | x6 | x6 | x6 | x6 | x6 | x6 | x6 | %184
w: ||||||||||||
w: ||||||||||||
w: ||||||||||||
 x6 | x6 | x6 | x6 | x6 | x6 | x6 | x6 | x6 | x6 | x6 | x6 | x6 | x6 | x6 | x6 | x6 | x6 || %202
w: ||||||||||||||||||
w: ||||||||||||||||||
w: ||||||||||||||||||
[K:Eb][M:4/4] x8 | x8 | x8 | x8 | x8 | x8 | x8 | B,8 | x8 | x8 | x8 | x8 | x8 | x8 || %216
w: ||||||||||||||
w: ||||||||||||||
w: ||||||||||||||
[K:C] C,4 E,2 F,F, | G,4 G,,4 | x8 | x8 | x8 | x8 | x8 | G,4 F,2 F,^F, | G,6 G,2 | x8 | x8 | x8 | %228
w: ||||||||||||
w: ||||||||||||
w: ||||||||||||
 x8 | x8 | x8 | x8 | x8 | x8 | x8 | x8 | x8 | z4 A,2 A,2 | C4 A,4 | G,6 G,2 | x8 | x8 | x8 | x8 | %244
w: ||||||||||||||||
w: ||||||||||||||||
w: |||||||||Qui cum|Pa- tre,|qui *|||||
 x8 | A,2 G,F, E,2 D,2 | x8 | x8 | x8 | x8 ||[M:3/4] x6 | x6 | x6 | x6 | x6 | x6 | x6 | x6 | %258
w: ||||||||||||||
w: ||||||||||||||
w: ||||||||||||||
 E,2 E,2 z2 | z6 | z4 E,E, | x6 | x6 ||[K:A] x6 | x6 | x6 | A,B,CA, B,C | D>D, D,2 x2 | x6 | x6 | %270
w: ||||||||||||
w: ||||||||||||
w: ||||||||||||
 x6 | x6 | x6 | x6 | x6 |][K:C][M:4/4] C,4 E,2 G,2 | x8 | C,4 F,2 A,2 | x8 | x8 | x8 | %281
w: |||||||||||
w: |||||||||||
w: |||||||||||
 B,,4 C,2 E,2 | F,6 F,2 | x8 | x8 | x8 | x8 | x8 | x8 | G,4 D,4 | x8 | x8 | E,3 D, C,2 F,E, | %293
w: ||||||||||||
w: ||||||||||||
w: |||||||||||cel- * sis, ho- *|
 D,2 E,F, G,2 A,2 | G,2 CB, A,2 B,A, | G,2 A,B, C2 x2 | x8 | x8 | A,2 D,2 G,2 F,2 | x8 | x8 | x8 | %302
w: |||||||||
w: |||||||||
w: san- na _ in ex-|cel- * * * * *|* * * sis,|||||||
 F,8 | x8 | x8 ||[K:G] x8 | x8 | x8 | x8 | x8 | x8 | x8 | x8 | x8 | x8 | x8 | x8 | x8 | x8 | x8 | %320
w: ||||||||||||||||||
w: ||||||||||||||||||
w: ||||||||||||||||||
 x8 | x8 | x8 | x8 | x8 | C2 B,2 A,2 G,2 | D,4 x2 D,C, | x8 | A,,4 B,,4 | E,4 x4 | x8 | x8 | x8 | %333
w: |||||||||||||
w: |||||||||||||
w: ||||||||Do- mi-|ni.||||
 x8 | x8 | x8 | C,4 D,4 | x8 | x8 | x8 | x8 | x8 |][K:C][M:4/4] x8 | x8 | x8 | x8 | x8 | x8 | %348
w: |||||||||||||||
w: |||||||||||||||
w: |||||||||||||||
 !^!F,4 E,4 | A,4 E,2 F,2 | G,4 G,,4 | x8 | x8 | x8 | x8 | x8 | x8 | x8 | x8 | z4 A,2 A,2 | %360
w: ||||||||||||
w: ||||||||||||
w: |||||||||||mi- se-|
 _B,4 A,4 | D,4 F,2 G,2 | A,4 A,,4 | x8 | x8 | x8 | x8 | x8 | C2 C,2 F,2 F,2 | x8 | x8 | %371
w: |||||||||||
w: |||||||||||
w: |||||||||||
 C,2 E,2 F,2 C,2 | G,,8 | x8 | x8 | x8 | x8 | x8 | x8 | x8 | x8 |] %381
w: ||||||||||
w: ||||||||||
w: ||||||||||
V:5
!p! A2 c4 B2 | A6 A2 | d2 c2 B4 | A2 E4 ^F2 | G2 B4 A2 | GBg^f edcB | c2 B2 A4 | %7
 G2 ^G2!<(! A3!<)! B | c2!mf! A4 ^G2 | A2!f! A2 f2 e2 | d4 c2 z2 | z8 | z2!p! c2 BAGF | %13
 E2!mf! e2!>(! dcB!>)!A | ^G2!p! G4 B2 | c4 B^GE^F | ^G2 G4 G2 | A4 ^G2!f! e2- | e4 ^d4 | %19
 e2!p! E2 ^F2 ^G2 |!f! [CA]CEA- A^G/^F/ GE | AEcB AGFE | d4"^cresc." c2 B2 | e2 d2 c2 c2 | %24
 f2 e2 d4 |!ff! e4 d4 | c6!mf! B2 |!>(! A8!>)! | [EG]2 [EG]4 [DF]2 | [CE]4!p! [A,C]2 [B,D]2 | E8 | %31
"^dim." ^G8 | [CA]2 z2 z2 [^CA]2 | F8 | [^CE]4!p! C4- | C4 z4 |][M:4/4]!f! G4 A2 G2 | c8- | %38
 [Ac]4 [^GB]2 [A-c]2 | d4 c4- | c4 B4 | c4 z4 | z8 | z8 | z8 | z8 | z8 | z8 | %48
 z2!f! ^G2 A2 [DB][Cc] | [B,^GB]6 [E-B]2 | [EAc]4 [EAc]4 | [GBd]4 [G-Bd]4 | [ce]4!p! c4- | c8- | %54
 [Ac]2!f! [cc]2 [Acf]2 [Gc-e]2 | d4 [Bd]4 | c2 _B2 G2 ^G2 |!p! [F-A]8 | c4 F4 | G8 | A4 F2 F2 | %61
 d2 e2 f2 c2- | c4 A4 | G8 | A8 | A8- | A8 | G8 | A8 | d2 d4 d2 | c4 A4 | G8 | A6- AB |!p! c8- | %74
 c6 d2 | B6 [Be]2- | [Be]2 [^GB]2!<)!!<(! [A^c]4 |!f! d6 c2 | [GB]2 G2 AGAB | c8- | c4 c2 f2 | %81
 a2 c4 c2 | d4 d4 | e4 d2 c2 |"^rit."!>(! B4 A2!>)! G2 | ^F2!p! B,2 ^C2 ^D2 | E8- | E8 | %88
 D4 C2 E2- | E4!>(! D2 C2!>)! | [G,B,]4!p! [B,D]4 | E8 |!<(!!>(! A8!<)!!>)! | ^G2!f! e3 dcB | c8 | %95
 f3 e d2 c2 |!>(! B8!>)! | c4!p! E4 | [FA]8- | [FA]4 [EG]2 [FA]2 |!<(! _B8!<)! |!>(! A8!>)! | %102
 [CAc]2!f! [Aa]4 [Ag]2 | [Af]2 [Ge]2 [Fd]2 [Ec]2 | [Fd]2 [Ec]2 [DB]2 [^DA-]2 | A2 ^G2 ^F4 | %106
 ^G4 z4 | z8 | z8 | z2!f! [^CA]2 [DB]2 [EA^c]2 | [FAd]6 [DAd]2 | e4 f4 | d8 | [Ge]2 z2 z4 | %114
 z2"^cresc."!f! [EGc]4 [EGc]2- | [EGc]2 z2 z4 | z2 [EGce]4 [EGce]2- | [EGce]2!ff! [Ge]4 [Af]2 | %118
 g4 e4 | d2!f! z2 z4 | z8 | z8 | z8 | z2 G2 A2 B2 | c2 G2 F2 GF | z2 c2 e2 ^f2 | g2 d2 c2 dc | %127
 B2 B2 c2 d2 | e2 de f2 d2 | [^Ge]2 [Ee]4 [Ee-]2 | [Ee]4 [Ac]4 | [Af]4 [G-e]4 | d8 | e4 z4 | %134
!ff! [cf]8 | [ce]8 |][M:3/4]!f! c2 Ac[EB][EA] | [B,^G]2 [CA]2 z [CEA] | d2 c2 dc/d/ | %139
 [Ace]2!>(! [Bd][Ac][^GB]!>)![Ac] | [^GB]4!f! [EGB]2 | [EAc]4 [EAc]2 | [^GB]4 [GB][Ac] | defedc- | %144
 c2 B2 B2 | c2!mf! C2 E2 | G6 | A6 | G2!f! [Bd]4 | e6 | [Af]2 [Ge]2 [Bd]2 | c2 B2 B2 | %152
!f! [CEA]BcA [Be]2 | [EAc]2 [CEA]2 z2 | [EAc]4 [Gd]2 | [Ge]2 [Gc]2 z2 | z2 cGEC | D2 d2 e2 | %158
 f4 e2 | d6 | c3 _BG^G |!p! A6 | c3 cde | f4 ed | [Ad]2 [A^c]2 c2 |!mf! d2 c2 A2- | AG/F/ E2 E2 | %167
!f! DFAd f2 | e>c A2 z2 | z6 | z A,CE A2 | f3 e dc | B4 B2 | e2 edcB | A4 B2 | c4!p! B2 | %176
 A2 z2 z2 | G3 FDG- | G2 E4 | C4 D2 | C2 z2 E2- | E3 D E2 | G2!<)!!<(! A4 |!>(! G4!<(! A!<)!B!>)! | %184
 c2 B2 G2 |!p! z c afcA | [DG]3 DEF | E>D C2 z2 |!pp! z G edcB | A3 AGF | D6- | [B,D]2 G2 G2 | %192
!f! _e4 c2- | [_Ac]2 B2- (3Bcd | _e4- ec- | c2 B2 (3GAB | [CGc]3 [CG] [CG]2 | [CF_A]4 [_EG]>[DF] | %198
!p! [C_EG]4 [DF]>[CE] |!pp! [B,DF]4 [C-_E]2 |"^dim." D4- D2 | !fermata!_E6 || %202
[K:Eb][M:4/4]!f! C4 E3 F | G2 A2 G2 E2 | C4 z4 | CD/E/ F/G/=A/=B/ cGEC |!<(! e4!<)! f4 | %207
 [=Bg]4 [Gd]4 | e4 [Ac]4 | [FB]8 |!f! E4 G3 A | B2 c2 B2 G2 | E4 z4 |"^cresc." B4 c2 d2 | %214
!ff! [ce]8 | [Gd]4 [Gd]4 ||[K:C] e6 c2- | c4 B4 |!f! c>E c>B A>c A>G | F>A F>E F>E D>C | %220
 B,>C B,A, G,2 G2 |"^cresc." [c-e]8 | [cf]8 | _e6!>(! d!>)!c |!p! B4 c4 | [GB]6 G2 | %226
!f! e4!<(! cde!<)!f |!ff! g8 | [Gce]2 d2 c2 BA |!p! E6 ^F^G | A2 c2 B2 A2 | d4 c2 de | %232
 f2 e2 d2 c2 | B4 B4 | c4 d4 | e4 d2 c2 | B8 | A4 z4 | z4 G4 | z4 d4 | e4 c4 | d6!p! G2- | G8 | %243
 _A4 _E2 F2 | [B,G]4 [B,D]2!f! G2 | [Ac]2 [Bd]2 [ce]2 [df]2 | [eg]4 [ce]2 z2 | A8- | %248
"^rit."!<(! A4 ^G2!<)! ^F2 | ^G6!mf! E2 ||[M:3/4] EA c2 BA | [B,E^G]2 [CEA]2 z [CEA] | %252
 [FAd]2!<(! [EAc]2!<)! d2 | [ce]2 [Bd]!>(![Ac][^GB]!>)![Ac] | [^GB]4 E2 | %255
 [A,CF]>[^G,B,E] [G,B,E]2 [B,E^G][E-B] | c2 B2 z2 | [DF][CE] [B,D]>[A,C] B,A, | ^G,4 [^GB]2 | c6 | %260
 B4!pp!!<(! ^G2!<)! |!>(! A6!>)! | ^G4!f! z2 ||[K:A] z6 | z6 | z2 z2 c2 | cdecde | f2 f2 z2 | z6 | %269
!f! dc"^rit." B4 | A2 z2 z2 | cdecde |!ff! [df]6 | [Ace]2 A,2 A,2 | A,4 z2 |][K:C][M:4/4] z8 | %276
 z2 z!p! e d!>(!cB!>)!A | G4 z4 | z2 z g!<(! fed!<)!c |!f! [Bd]4 [ce]4 | [Bd]8 | f6 e2 | [Ad]8 | %283
 [^Ge]8 |!f! [^ce]8 | [df]8 | [G-Bd]8 | [Gce]6 [ce]2- | [ce]4 [Bd]2 [Ac]2 | [GB]4 [^FA]4 | %290
 !fermata![DG]4!f! z4 | z8 | z8 | z8 | z2 G2 A2 D2 | z4 z2 c2 | e2 A2 d2 c2 | B3 A G2 AB | %298
 c2 f2 d4 | c3 d e2 e2 | d8 | c4 z4 | A4 c2 d2 | [EGe]4 C2 C2 | C4 z4 ||[K:G]!p! g2 d2 B2 G2 | %306
!<(! A3 B!<)! G4- |!<(! GABc!<)! d2 cB | A6 B2 | G2 z D!<(! EFG!<)!A |!p! B4 c2 B2 | A2 B2 G4 | %312
 G6 A2 | B8 | B2 e4 d2- | d3 B d4 | e2 g4 g2 | f3 e d4 | d4- d^cBc | d2 =c2 B2 A2 |!mf! G6 A2 | %321
"^cresc." B8 | d6 c2 | [GB]6 [GB]2 | [Ee]4 [FA]4 | [Gd]4 [Fc]2 [GB]2 | [FA]6 [FA]2 | [FB]4 [EG]4 | %328
"^dim." [FA]4 [EG]2 [^DF]2 | E6 E2 |!f! [Ac]4 [GB]2 E2 | A4 G2 G2- | G4 F4 | [B,DG]6 G2 | %334
 e4 d2 D2 | c4 B2 B2 |!>(! A8!>)! | G4!p! EFGA | B4 G2 G2 | E2 F2!<(! G2!<)! A2 | B4!p! G4- | %341
 [B,DG]2 z2 z4 |][K:C][M:4/4]!p! e2 c2 A3 B | c4 B2 A2 | G3 F E4 | E2 A4 G2- |!<(! G2!<)! e4 d2 | %347
!>(! c4!>)!!mf! B2 z2 | z4 [^GB]2 [GB]2 | [Ac]4 e2 d2 | c4 B4 |!<(! c8-!<)! | c'2 a2 f3 g | %353
!p! afcA G2 F2- | F6 [EG]2 | [CFA]6!pp! F2 | F2 _B4 A2- | A2 G2 F2 G2 |!>(! A8-!>)! | A4!p! z4 | %360
 z4 E4 | F4 A2 G2 | F4 E4 | D2!f! A2 d2 f2 | e2 c2 A3 B |!f! [Ac]4 [GB]2 [FA]2 | G2 F2 E2 ^GB | %367
 c2 A4 G2 | G2 e4 d2 |!>(! c4!>)! B2 G2- |!p! G8 | c2 B2 A2 G2 |"^dim." G8 | E4 z4 |!<(! A8!<)! | %375
!>(! G8!>)! | C6 D2 | E2!<(! C2 E2!<)! F2 | c8- |!>(! c8-!>)! | c8 |] %381
V:6
 C2 E4 D2 | C2 G2 F2 E2 | ^F^G A4 G2 | A2 C2 B,2 ^D2 | E4 E^DE^F | G2 BA G2 E2- | E6 ^D2 | %7
 E4- E=FED | C2 E4 D2 | C2 G2 F2 A2 | A6 z2 | x8 | z2 A2 GFED | C2 G2 FEDC | B,2 E4 ^G2 | %15
 A4 ^G2 E^D | E2 E4 E2- | E3 ^D E2 ^G2 | ^F8 | ^G2 E4- ED | x8 | x8 | A6 ^G2 | A2 B2 c2 A2 | %24
 A4 B4 | G6 F2 | E6 G2- | G4 F4 | x8 | x8 | C8 | D8 | x2 z2 z2 x2 | D8 | x8 | x8 |][M:4/4] x8 | %37
 [E-G]8 | E8 | [FA]4 [EG-]4 | [DG-]8 | [EG]4 z4 | x8 | x8 | x8 | x8 | x8 | x8 | z2 E6 | x8 | x8 | %51
 x8 | G4 E4 | F2 E2 F2 G2 | x8 | [Ac]4 G2 F2 | E4 C4 | C8 | F4 F4- | F4 E4 | F4 F2 F2 | %61
 F2 G2 F2 A2 | G4 F4- | F4 E2 D2 | E2 ^C2 D2 E2 | [DF]8 | [CE]8- | [CE]8 | F2 G2 F2 E2 | %69
 D2 F4 F2- | F8- | F4 E4 | F2 G2 F2 ED | E8 | F4 A4- | A2 ^G^F G2 G2- | G2 E6 | [FA]8 | %78
 D2 B,2 CB,CD | E6 G2 | A4 A4- | A2 A2 G4- | G8- | G6 E2 | G4 ^F2 E2 | ^D2 B,2- B,2 A,2 | %86
 G,2 ^G,2 A,2 B,2 | C4 B,4 | A,4 G,4 | A,8 | x8 | C8- | C2 F2 E2 D2 | E2 ^G2 A2 E2 | [EA-]8 | A8 | %96
 G8 | E4 E4 | x8 | x8 | F8- | F4 E4 | x8 | x8 | x8 | E6 ^D2 | E4 z4 | x8 | x8 | z2 x6 | x8 | A8 | %112
 G8 | x2 z2 z4 | z2 x6 | x2 z2 z4 | z2 x6 | x8 | G8- | G2 z2 z4 | x8 | x8 | x8 | x8 | x8 | %125
 E2 G4 A2 | G6 ^F2 | G8- | G4 A2 G2 | x8 | x8 | x8 | G8- | G4 z4 | [FA]8 | [EG]8 |] %136
[M:3/4] E2 CEDC | E4 x2 | F2 [EA]2 A2- | x6 | x6 | x6 | E4 E2 | A6 | [D-G]6 | [EG]2 C2- C2 | %146
 [CE]6 | [C_E]6 | D2 G4 | [Gc]6 | c4 F2 | [EA]4 [D^G]2 | x6 | x4 z2 | x6 | x4 z2 | x6 | B,2 G4 | %158
 A4 G2 | A2 G3 F | E2 F2 C2 | F6 | G4 G2 | [FA]4 [G_B]2 | E4 AG | F4 F2- | FE/D/ D2 ^C2 | %167
 D2 F2 x2 | A4 z2 | x6 | x6 | A4 D2- | D4 G2 | G6 | G6- | G2 ^F2 G2 | D2 z2 z2 | B,2 C2 D2 | %178
 C4 B,2 | A,B,A,G, A,B, | C2 z2 C2- | C6- | C3 DEF | D2 GFED | C2 D2 E2 | [FA]6 | x6 | x6 | %188
 [C-E]6 | [CF]4 C2- | C2 B,2 A,2 | x6 | [_EG]4 E2 | F2 [FG]2 [FG-]2 | [_EG-]6 | %195
 [FG]4 (3:2:2[B,D]2 [DG] | x6 | x6 | x6 | x6 | C2 A,2 B,2 | C6 ||[K:Eb][M:4/4] x8 | x8 | x8 | x8 | %206
 c8 | x8 | G4 E4- | E4 D4 | x8 | x8 | x8 | F8 | [EG-]8 | =B8 ||[K:C] G6 A2 | G8 | [EG]2 x6 | x8 | %220
 x8 | G8 | F8 | G2 c_B _A4 | G4 ^F4 | D6 G2 | G4 A3 c | c4 B4 | x8 | z2 ^G,2 A,2 D2 | C2 E6 | A8 | %232
 d2 c2 B2 A2- | A2 ^G^F G4 | A4 B4 | c3 B A2 A2- | A4 ^G4 | A4 z4 | z4 C4 | G4 D2 G2- | G8 | %241
 G6 G2- | G8 | _E4 C4 | x8 | E2 G6- | G6 z2 | ^D8 | E6 ^D2 | E6 E2 ||[M:3/4] C2 E2 E2 | x6 | %252
 z4 A2 | E6- | E4 E2 | x6 | E^D E2 z2 | x6 | x6 | A6 | ^G4 E2- | E4 ^D2 | E4 z2 ||[K:A] z2 z2 z E | %264
 EFGEFG | AB c2 A2 | cB A2 A2 | A2 A2 z2 | x6 | A4 G2 | E2 z2 z2 | A6 | [FA-]6 | x6 | x6 |] %275
[K:C][M:4/4] x8 | z2 z G G3 F | E4 z4 | z2 z G- G4 | G8- | G8- | G8 | x8 | x8 | A8- | A8 | x8 | %287
 x8 | x8 | x8 | x4 z4 | x8 | x8 | x8 | x8 | G2 F2 E3 D | C2 FE D2 EF | G6 F2 | E2 A2 G4 | G8 | %300
 A4 G2 F2 | E4 z4 | F4 [FA]4 | x8 | x8 ||[K:G] z4 z2 D2 | E2 F2 G2 FE | D2 C2 B,2 FG | EGFE FEDC | %309
 B,2 z D- D2 EF | G4 F2 G2 | E2 F2 G2 F2 | E8 | ^D4 E2 F2 | G4 A4 | B4 B4- | B8 | ^A4 B4 | A8 | %319
 A2 E2 D2 C2 | B,2 E4 F2 | G6 FE | D2 E2 F4 | x8 | x8 | x8 | x8 | x8 | x8 | x8 | x8 | %331
 C2 D2 E2 D2- | D8 | x8 | [EG]2 [FA]2 [GB]2 D2 | [CE]2 [DF]2 [EG]2 [EG-]2 | [EG-]4 [DG]2 [CF]2 | %337
 [B,D]4 [CE]4 | [B,D]8 | E4 D2 C2 | B,4 [B,D]4- | x8 |][K:C][M:4/4] z4 F4 | E4 G2 F2 | D8 | C4 D4 | %346
 E2 G2 A4- | A2 ^F2 ^G2 z2 | z4 E2 E2- | E4 G2 A2 | G8- | [EG]4 F2 G2 | [Ac]2 z2 [_Bd]4 | %353
 [Ac]2 [FA]2 D4- | D4 C2 _B,2 | x8 | D4 C4 | E4 D4- | [DF]4 [^CE]2 [B,D]2 | [^CE]4 z4 | z4 ^C4 | %361
 D6 E2 | D4 ^C4 | D2 A4- AB | c2 z2 F4 | E4 C4 | DEDC B,2 E2 | E4 D4 | E2 G2 A4 | G6 z2 | %370
 B,2 C2 D2 ^D2 | E2 G2 F2 E2 | D8 | C4 z4 | z2 ^C2 D2 E2 | D2 E2 F2 ED | C6 B,2 | C2 C4 F2- | %378
 F4 E2 D2 | E8- | E8 |] %381
V:7
"^Man." A,4 ^G,4 | A,6 z2 | z4 E4 | [A,C]2 A,2 =G,2 [^F,A,]2 |"^Ped." G,2 z2 z2 B,2- | B,6 z2 | %6
 A,2 B,2 B,4- | B,2 z2 z4 | A,2 C4 B,2 | A,2 ^C2 D2 =C2 | F4 E2 z2 | z8 | z2 A,,2 B,,4 | C,4 D,4 | %14
 E,2 ^G,B, E4- | E2 ^D2 EB,^G,^F, | E,2"^Man." B,4 B,2 | C4 B,2"^Ped." B,2- | B,8- | %19
 B,2 E,3 D,C,B,, | A,,C,E,A,- A,^G,/^F,/ G,E, | A,E,CB, A,G,F,E, | A,6 E2- | E6 E2 | D2 C2 B,4 | %25
 C4 B,4 | C6 C2- | C8- | C2 C4 A,2- | A,4 A,4- | A,8 | B,8 | A,2 z2 z2 A,2- | A,8 | A,4 A,4- | %35
 A,4 z4 |][M:4/4]"^Man." G,4 A,2 G,2 |"^Ped." C,6 B,,2 | A,,4 E,2 A,2 | D,4 E,2 F,2 | G,4 G,,4 | %41
 C,4 z4 | z8 | z8 | z8 | z8 | z8 | z8 | z2 D,2 C,2 B,,A,, | ^G,,2 B,,2 E,2 ^G,2 | A,4 A,2 A,2 | %51
 G,2 F,2 E,2 D,2 | z4 C4- | C8- | [F,C]2 C2 F,2 C,2 | F,4 G,4 | C,4 E,4 | F,4 C,2 A,,2 | %58
 A,4 D2 C2- | C8- | C4 z4 | D2 C2 C4- | C8 | D8 | ^C2 z2 z4 | D,8 | A,,8 | C,2 _B,,2 A,,2 G,,2 | %68
 C4 D2 A,2 | _B,2 B,4 B,2 | A,4 C4- | C8- | [F,C]2 E,2 D,2 C,B,, |"^Man." A,8- | A,8 | E6 z2 | %76
 E,2"^Ped." E,2 A,2 A,2 | D,8 | G,2 G,4 G,2 | G,6 C2 | C8- | C2 C6 | B,8 | C4 B,2 A,2 | B,8 | %85
 B,2 A,2 G,2 ^F,2 | E,2 D,2 C,2 B,,2 | A,,4 G,,2 G,2 | F,4 E,2 C,2 | D,4 F,,4 | D,4 z4 | %91
 G,4 A,2 B,2 | A,8 | [E,B,]2"^Ped." E,2 ^F,2 ^G,2 | A,A,,C,E, A,E,C,A, | D4 F3 E | D2 GF E2 D2 | %97
 C4 C4 | C8- | C4 C4 | D8 |"^Man." C8- | C2"^Ped." [A,^C]2 [B,D]2 [CE]2 | D4 A,2 A,2 | A,6 B,2- | %105
 B,8 | B,4 z4 | z8 | z8 | z2"^Ped." A,2 A,2 A,,2 | D,6 F,2 | ^C4 D2 =C2- | C4 B,4 | C2 z2 z4 | %114
 z2 [G,C]4 [G,C]2- | [G,C]2 z2 z4 | z2 C4 C2- | C2 C4 C2 | D4 C4 |"^Ped." B,2 z2 z4 | %120
 C2 G,2 F,2 G,F, | z2 C2 E2 ^F2 | G2 D2 C2 DC | B,2 C2- CFED | E2 C4 B,2 | C2 ED C4- | C2 B,2 A,4 | %127
 G,2 F2 E2 D2 | C2 B,2 C2 B,2- | B,2 ^G,2 A,2 B,2 | C4 E4 | D2 A,2 C4- | C4 B,4 | C4 z4 | [F,C]8 | %135
 [G,C]8 |][M:3/4] A,4 ^G,A, | E,2 A,,G,F,E, | D,2 A,2 F,2 | E,6 | E,B,,E,D,C,B,, | A,,4 A,,2 | %142
 E,4 E,A, | DCB,C D2 | G,4 G,,2 | C,2 E,2 G,2 | z6 | ^F,6 | G,2 z2 z2 | C,6 | F,2 C,2 D,2 | %151
 E,4 E,2 | A,B,CA, [^G,D]2 | A,2 A,2 z2 | A,,C,E,A, [B,D]2 | C2 C2 z2 | z2 CG,E,C, | G,2 B,2 C2- | %158
 C6- | C4 B,2 | C6- |"^Man." C6- | [E,C]4 E,2 | D,4 G,2 | z4"^Ped." E2 | D2 F2 C2 | _B,4 A,G, | %167
 F,2 z4 | C4 z2 | z6 | z A,,C,E, A,2 | D3 C B,A, | G,6 | C2 E4- | E4 E2- | E2 D2 D2- | D2 z2 z2 | %177
"^Man." G,6 | E,6- | E,2 z2 E,2 | CE,G,C CB, | A,4- A,G,/F,/ | C6 |"^Ped." B,3 A,G,F, | %184
 E,2 G,2 C2- | C6- | C2 B,4 | C>B, A,2 z2 |"^Man." G,6 | [F,A,]4 A,2 | G,6- | G,2 G,2 G,2 | %192
"^Ped." C4 C2 | D,4 G,2 | (3C,_E,G, (3CG,E, C,2 | D,2 G,2 F,2 | _E,4 E,2 | F,4 z2 | G,6- | G,6- | %200
 G,6- | !fermata!G,6 ||[K:Eb][M:4/4] C,4 E,3 F, | G,2 A,2 G,2 E,2 | C,4 z4 | %205
 C,D,/E,/ F,/G,/=A,/=B,/ CG,E,C, | C8 | [G,D]4 [G,=B,]4 | C4 z4 | B,4 B,,4 | E,4 G,3 A, | %211
 B,2 C2 B,2 G,2 | E,4 z4 | D,6 D,2 | [G,-C]8 | G,4 =B,4 ||[K:C] C6- CD- | D8 | %218
 C>E, C>B, A,>C A,>G, | F,>A, F,>E, F,>E, D,>C, | B,,>C, B,,A,, G,,2 G,2 | C8- | C8 | C6 D2 | %224
 D4 _E4 | G,G,,B,,D, G,2 G,2 | C8 | D8 | C2 D2 C2 B,A, |"^Man." E,8 | A,4 B,2 C2 | F4 E2 DC | %232
 B,2 C2 D2 ^D2 | E6 D2 | C6 B,2 | A,3 G, F,2 A,2 | DE F2"^Ped." E2 D2 | C4!mf! z4 | C4 A,4 | %239
 C4 B,4 | C8 | B,6 G,2- | G,8 | C,4 _A,,4 | G,,6 G,2 | A,2 G,F, E,2 D,2 | C,2 E,G, C2 z2 | A,8 | %248
 B,8- | B,6 E,2 ||[M:3/4] A,4 ^G,A, | E,2 A,,G,F,E, | D,2 A,2 F,2 | E,6- | E,4 E,2 | %255
 ^D,>E, E,2 E,^G, | A,2 ^G,2 z2 | z6 | z4 E2 | ^D6 | E4 B,2 | C6 | B,4 z E, ||[K:A] A,B,CA,B,C | %264
 D6 | CB, A,2 E2 | EDCE =G2 | F2 F2 z2 | z6 | F2 D4 | [E,A,C]2 z2 z2 | A,6 | [A,-D]6 | %273
 [A,C]2 A,,2 A,,2 | A,,4 z2 |][K:C][M:4/4] z8 | z2 z"^Man." C B,C C2- | C4 z4 | %278
 z2 z"^Man." E, F,2 G,2 |"^Ped." G,4 C,G,E,C, | G,4- G,D,B,,G,, | B,,G,,A,,B,, C,2 E,2 | %282
 z4 z2 A,2 | B,8 | A,A,,^C,E, A,E,C,A,, | D,8 | G,G,,B,,D, G,D,B,,G,, | C,6 z2 | %288
 [D,^F,]4 [E,G,]2 [F,A,]2 | B,2 C2 D2 C2 | B,4 z4 | A,2 D,2 G,2 F,2 | z2 C2 E2 A,2 | D2 C2 B,3 A, | %294
 G,2 ED C2 DC | B,2 CD C2 z2 | z8 | z4 z2 D2 | C2 DC B,4 | C3 B, C4 | C4 B,4 | C4 z4 | C4 A,2 C2 | %303
 [C,C]4 C,2 C,2 | C,4 z4 ||[K:G] z4 z2 B,2 | C2 D2 E2 DC | B,2 A,2"^Ped." G,2 D2 | z4 D,4 | %309
 D,2 z2 z4 |"^Man." D6 D2 | C2 B,6 | C2 B,A, G,2 F,E, | F,2 B,2 ^C2 ^D2 | E4 F4 | G6 G2- | G2 E6 | %317
 F4 G4 | F4 E2 G2 | F2"^Ped." D,2 E,2 F,2 | G,2 B,2 C4 | B,6 z2 | z4 A,2 D2 | D6 D2 | C4 D4 | %325
 D4 D4 | D6 D2 | ^D4 B,4 | C4 B,2 A,2 | G,2 ^G,2 A,2 B,2 | E6 z2 | z4 z2 G,2 | A,8 | %333
 G,2 D,2 B,,2 G,,2 | C,4 G,2 z2 | A,4 E,2 E,2 | C,4 D,4 | G,,4 [C,G,-]4 | G,8- | G,6- G,F, | %340
 [G,,G,]4 D,2 B,,2 | G,,2 z2 z4 |][K:C][M:4/4] z4"^Man." D4 | A,4 C4 | B,8 | A,4 B,4 | C2 C,2 F,4 | %347
 E,4"^Ped." E,2 E,2 | !^!F,4 !^!E,4 | z4 C3 D | E4 D4 | C,4 D,2 E,2 | F,2 z2 z4 | %353
"^Man." F,4 _B,3 A, | _B,4 A,2 G,2 | F,6 z2 | _B,4 F,4 | C2 _B,2 A,2 D2 | A,,8- | A,,4 A,2 A,2 | %360
 _B,4 A,4- |"^Ped." A,6 _B,2 | A,6 G,2 | [F,A,]2 A,2- A,4 | A,2 z2 A,4 | [A,,A,]4 E,2 F,2 | %366
 G,2 B,A, ^G,2 z2 | A,2 C2 D4 | C6 D2 | E4 D2 z2 |"^Man." G,2 A,2 B,4 |"^Ped." C8- | C4 B,4 | %373
 C4 z4 | A,8 | [G,,B,]8 | F,4 E,2 D,2 | C,2"^Man." A,2 B,2 A,2- |"^Ped." A,8- | A,4 G,4- | G,8 |] %381
V:8
 A,,4 E,4 | F,2 E,2 D,2 C,2 | B,,2 C,D, E,4 | x8 | E,2 G,4 ^F,2 | E,3 ^F, G,2 ^G,2 | A,2 G,2 ^F,4 | %7
 E,2 D,2 C,D,C,B,, | A,,4 E,4 | F,2 E,2 D,2 z2 | x8 | x8 | x8 | x8 | E,2 z2 z4 | x8 | z2 E,4 E,2- | %17
 E,4 E,2 E,2 | B,,4 B,,4 | E,2 x6 | x8 | x8 | F,4 E,2 D,2 | C,2 B,,2 A,,2 G,2 | F,4 G,4 | C,4 G,4 | %26
 A,2 E,C, A,,2 E,2 | F,8 | C,2 C,4 D,2 | E,4 F,4 | E,8- | E,8 | [A,,E,]2 x2 x2 A,,2 | %33
 D,2 A,2 F,2 D,2 | A,,4 [A,,E,]2 [A,,E,]2 | [A,,E,]4 x4 |][M:4/4] x8 | x8 | x8 | x8 | x8 | x8 | %42
 x8 | x8 | x8 | x8 | x8 | x8 | x8 | x8 | x8 | x8 | C,4 C,4 | D,2 C,2 D,2 E,2 | x8 | x8 | x8 | x8 | %58
 F,,4 _B,,2 A,,2 | G,,4 C,4 | F,4 x4 | _B,2 B,2 A,2 F,2 | E,4 F,2 A,2 | _B,8 | A,2 A,,2 B,,2 ^C,2 | %65
 x8 | x8 | x8 | F,,2 E,2 D,2 C,2 | _B,,2 B,,4 B,,2 | F,4 F,2 F,2 | C,4 C,4 | x8 | A,,8 | F,8 | %75
 E,6 E,2 | x8 | x8 | x8 | C,6 E,2 | F,4 F,4- | F,2 F,2 E,2 E,2 | G,4 G,4 | C,4 G,2 A,2 | %84
 E,4 ^F,2 G,2 | x8 | x8 | x8 | x8 | x8 | G,,4 x4 | C,2 B,,2 A,,2 G,,2 | F,,4 F,4 | x8 | x8 | D,8 | %96
 G,8 | A,4 A,,2 G,,2 | F,,2 A,,2 C,2 A,,2 | F,,4 C,2 F,2 | _B,,2 F,2 D,2 B,,2 | C,8 | %102
 F,2 A,,2 B,,2 ^C,2 | D,6 A,,2 | D,2 E,2 F,4 | E,4 B,,4 | E,4 x4 | x8 | x8 | x8 | x8 | A,4 D,4 | %112
 G,8 | C,2 x2 x4 | x2 C,4 C,2- | C,2 x2 x4 | x2 [C,G,]4 [C,G,]2- | [C,G,]2 _B,4 A,2 | =B,4 C4 | %119
 G,2 G,2 A,2 B,2 | x8 | E,2 E,D, C,2 C2- | C2 B,2 A,2 ^F,2 | G,2 E,2 F,2 G,2 | C,2 E,2 D,2 G,,2 | %125
 C,2 z2 z4 | x8 | z2 G,2 A,2 B,2 | C2 G,2 F,2 G,F, | E,2 E,2 ^F,2 ^G,2 | A,4 A,4 | D,4 E,2 F,2 | %132
 G,8 | C,4 x4 | F,,8 | [C,,C,]8 |][M:3/4] A,,4 B,,C, | x6 | x6 | x6 | x6 | x6 | x6 | %143
 F,E,D,E,F,^F, | x6 | z2 C,4- | C,6- | C,6 | B,,2 G,F,E,D, | x6 | x6 | x6 | x6 | x6 | x6 | %155
 C2 E,2 x2 | x6 | G,,2 G,2 C,2 | F,4 C,2 | F,2 G,4 | C,2 D,2 E,2 | F,6 | x6 | x6 | A,2 A,2 A,2 | %165
 _B,2 A,2 F,2 | G,,4 A,,2 | D,3 A,,D,F, | A,4 x2 | x6 | x6 | D,3 E, F,^F, | G,2 G,F,E,D, | %173
 C,4 C,2- | C,D,E,D, C,B,, | A,,4 B,,C, | D,2 x2 x2 | G,,2 A,,2 B,,2 | C,4 ^G,,2 | %179
 A,,G,,F,,E,,F,,G,, | [C,E,]2 z2 z2 | x6 | E,2 F,4 | G,2 G,,4 | A,,2 B,,2 C,2 | F,6 | G,4 G,,2 | %187
 A,,4 x2 | C,6 | x6 | x6 | x6 | (3C,_E,G, (3CG,_A, (3G,E,C, | x6 | x6 | x6 | x6 | x6 | C,4 z2 | %199
 G,,6- | G,,6 | C,6 ||[K:Eb][M:4/4] x8 | x8 | x8 | x8 | A,4 A,4 | x8 | C,4 A,,2 A,2 | x8 | x8 | %211
 x8 | x8 | x8 | C,8 | G,,4 G,4 ||[K:C] C,4 E,2 F,2 | G,4 G,,4 | x8 | x8 | x8 | C,6 _B,2 | %222
 _A,4 A,4 | G,4 F,3 ^F, | G,8 | x8 | C,4 A,4 | G,8 | C,2 z2 z4 | E,2 D,2 C,2 B,,2 | A,,4 z4 | x8 | %232
 x8 | x8 | x8 | x8 | z4 E,4 | A,4 A,2 A,2 | x8 | G,8 | C,4 E,4 | G,6 G,2- | G,2 F,2 _E,2 D,2 | %243
 C,4 _A,,4 | x8 | x8 | x8 | F,8 | E,6 B,,2 | E,6 E,2 ||[M:3/4] A,,4 B,,C, | x6 | x6 | x6 | x6 | %255
 x6 | A,2 E,2 x2 | D,6 | E,4 z2 | z6 | z2 z2 E,2 | E,6- | E,4 z2 ||[K:A] x6 | x6 | z2 z2 A,2 | %266
 A,B,CA,B,C | D2 D2 x2 | x6 | B,,2 E,4 | A,,2 x2 x2 | A,,B,,C,A,,B,,C, | D,6 | A,,2 x4 | x6 |] %275
[K:C][M:4/4] x8 | x2 x C, D,E,F,A, | C4 x4 | x2 x C, D,2 E,2 | x8 | x8 | x8 | F,8 | E,8 | x8 | x8 | %286
 x8 | x8 | x8 | G,4 D,4 | !fermata!G,4 z2 G,2 | x8 | E,3 D, C,2 F,E, | D,2 E,F, G,2 A,2 | %294
 B,2 CB, A,2 B,A, | G,2 A,B, C2 x2 | x8 | x4 x2 G,2 | A,2 D,2 G,2 F,2 | E,3 D, C,3 E, | F,4 G,4 | %301
 [C,G,]4 x4 | F,8 | x8 | x8 ||[K:G] x8 | x8 | z4 G,,2 A,,B,, | C,4 D,4 | G,,2 D,3 C,B,,A,, | %310
 G,,4 A,,2 B,,2 | C,2 D,2 E,2 D,2 | C,8 | B,,4 z4 | x8 | x8 | x8 | z4 z2 G,2 | A,4 A,,4 | %319
 D,2 D,4 D,2 | G,2 E,2 C,2 A,,2 | G,,2 G,F, E,2 D,C, | B,,2 C,2 D,4 | G,2 D,2 B,,2 G,,2 | %324
 C,2 C2 C4- | C2 B,2 A,2 G,2 | D,6 D,C, | B,,4 E,4 | A,,4 B,,4 | E,2 D,2 C,2 B,,2 | %330
 A,,2 C,2 E,2 E,2 | A,,2 B,,2 C,2 B,,2 | D,8 | x8 | x8 | x8 | x8 | x8 | G,4 D,2 B,,2 | %339
 C,4 B,,2 A,,2 | x8 | x8 |][K:C][M:4/4] x8 | A,4 E,2 F,2 | G,4 ^G,4 | x8 | x8 | x8 | x8 | %349
 A,4 E,2 F,2 | G,4 G,,4 | x8 | x8 | x8 | x8 | x8 | x8 | C,2 ^C,2 D,2 _B,,2 | x8 | x8 | x8 | %361
 D,4 F,2 G,2 | A,4 A,,4 | D,2 A,2 F,2 D,2 | A,,2 x2 D,4 | x8 | B,,C, D,2 E,D,C,B,, | A,,4 B,,4 | %368
 C,4 F,4 | G,6 x2 | x8 | C,2 E,2 F,2 C,2 | G,,8 | A,,4 x4 | F,,8 | F,2 E,2 D,2 F,2- | %376
 A,,4 G,,2 F,,2 | C,,2 A,2 G,2 F,2 | [C,,C,]8- | [C,,C,]8- | [C,,C,]8 |] %381
V:9
 x8 | x8 | x8 | x8 | x8 | x8 | x8 | x8 | x8 | x8 | x8 | x8 | x8 | x8 | x8 | x8 | x8 | x8 | x8 | %19
 x8 | x8 | x8 | x8 | x8 | x8 | x8 | x8 | x8 | x8 | x8 | x8 | x8 | x8 | x8 | x8 | x8 |][M:4/4] x8 | %37
 x8 | x8 | x8 | x8 | x8 | x8 | x8 | x8 | x8 | x8 | x8 | x8 | x8 | x8 | x8 | x8 | x8 | x8 | x8 | %56
 x8 | x8 | x8 | x8 | x8 | x8 | x8 | x8 | x8 | x8 | x8 | x8 | x8 | x8 | x8 | x8 | x8 | x8 | x8 | %75
 x8 | x8 | x8 | x8 | x8 | x8 | x8 | x8 | x8 | x8 | x8 | x8 | x8 | x8 | x8 | x8 | x8 | x8 | x8 | %94
 x8 | x8 | x8 | x8 | x8 | x8 | x8 | x8 | x8 | x8 | x8 | x8 | x8 | x8 | x8 | x8 | x8 | x8 | x8 | %113
 x8 | x8 | x8 | x8 | x8 | x8 | x8 | x8 | x8 | x8 | x8 | x8 | x8 | x8 | x8 | x8 | x8 | x8 | x8 | %132
 x8 | x8 | x8 | x8 |][M:3/4] x6 | x6 | x6 | x6 | x6 | x6 | x6 | x6 | x6 | x6 | x6 | x6 | x6 | x6 | %150
 x6 | x6 | x6 | x6 | x6 | x6 | x6 | x6 | x6 | x6 | x6 | x6 | x6 | x6 | x6 | x6 | x6 | x6 | x6 | %169
 x6 | x6 | x6 | x6 | x6 | x6 | x6 | x6 | x6 | x6 | x6 | x6 | x6 | x6 | x6 | x6 | x6 | x6 | x6 | %188
 x6 | x6 | x6 | x6 | x6 | x6 | x6 | x6 | x6 | x6 | x6 | x6 | x6 | x6 ||[K:Eb][M:4/4] x8 | x8 | x8 | %205
 x8 | x8 | x8 | x8 | x8 | x8 | x8 | x8 | x8 | x8 | x8 ||[K:C] x8 | x8 | x8 | x8 | x8 | x8 | x8 | %223
 x8 | x8 | x8 | x8 | x8 | x8 | x8 | x8 | x8 | x8 | x8 | x8 | x8 | x8 | x8 | x8 | x8 | x8 | x8 | %242
 x8 | x8 | x8 | x8 | x8 | x8 | x8 | x8 ||[M:3/4] x6 | x6 | x6 | x6 | x6 | x6 | x6 | x6 | x6 | x6 | %260
 x6 | x6 | x6 ||[K:A] x6 | x6 | x6 | x6 | x6 | x6 | x6 | x6 | x6 | x6 | x6 | x6 |][K:C][M:4/4] x8 | %276
 x8 | x8 | x8 | x8 | x8 | d4 c4 | x8 | x8 | x8 | x8 | x8 | x8 | x8 | x8 | x8 | x8 | x8 | x8 | x8 | %295
 x8 | x8 | x8 | x8 | x8 | x8 | x8 | x8 | x8 | x8 ||[K:G] x8 | x8 | x8 | x8 | x8 | x8 | x8 | x8 | %313
 x8 | x8 | x8 | x8 | x8 | x8 | x8 | x8 | x8 | x8 | x8 | x8 | x8 | x8 | x8 | x8 | x8 | x8 | x8 | %332
 x8 | x8 | x8 | x8 | x8 | x8 | x8 | x8 | x8 | x8 |][K:C][M:4/4] x8 | x8 | x8 | x8 | x8 | x8 | x8 | %349
 x8 | x8 | x8 | x8 | x8 | x8 | x8 | x8 | x8 | x8 | x8 | x8 | x8 | x8 | x8 | x8 | x8 | x8 | x8 | %368
 x8 | x8 | x8 | x8 | x8 | x8 | x8 | x8 | x8 | x8 | x8 | x8 | x8 |] %381
V:10
 x8 | x8 | x8 | x8 | x8 | x8 | x8 | x8 | x8 | x8 | x8 | x8 | x8 | x8 | x8 | x8 | x8 | x8 | x8 | %19
 x8 | x8 | x8 | x8 | x8 | x8 | x8 | x8 | x8 | x8 | x8 | x8 | x8 | x8 | x8 | x8 | x8 |][M:4/4] x8 | %37
 x8 | x8 | x8 | x8 | x8 | x8 | x8 | x8 | x8 | x8 | x8 | x8 | x8 | x8 | x8 | x8 | x8 | x8 | x8 | %56
 x8 | x8 | x8 | x8 | x8 | x8 | x8 | x8 | x8 | x8 | x8 | x8 | x8 | x8 | x8 | x8 | x8 | x8 | x8 | %75
 x8 | x8 | x8 | x8 | x8 | x8 | x8 | x8 | x8 | x8 | x8 | x8 | x8 | x8 | x8 | x8 | x8 | x8 | x8 | %94
 x8 | x8 | x8 | x8 | x8 | x8 | x8 | x8 | x8 | x8 | x8 | x8 | x8 | x8 | x8 | x8 | x8 | x8 | x8 | %113
 x8 | x8 | x8 | x8 | x8 | x8 | x8 | x8 | x8 | x8 | x8 | x8 | x8 | x8 | x8 | x8 | x8 | x8 | x8 | %132
 x8 | x8 | x8 | x8 |][M:3/4] x6 | x6 | x6 | x6 | x6 | x6 | x6 | x6 | x6 | x6 | x6 | x6 | x6 | x6 | %150
 x6 | x6 | x6 | x6 | x6 | x6 | x6 | x6 | x6 | x6 | x6 | x6 | x6 | x6 | x6 | x6 | x6 | x6 | x6 | %169
 x6 | x6 | x6 | x6 | x6 | x6 | x6 | x6 | x6 | x6 | x6 | x6 | x6 | x6 | x6 | x6 | x6 | x6 | x6 | %188
 x6 | x6 | x6 | x6 | x6 | x6 | x6 | x6 | x6 | x6 | x6 | x6 | x6 | x6 ||[K:Eb][M:4/4] x8 | x8 | x8 | %205
 x8 | x8 | x8 | x8 | x8 | x8 | x8 | x8 | x8 | x8 | x8 ||[K:C] x8 | x8 | x8 | x8 | x8 | x8 | x8 | %223
 x8 | x8 | x8 | x8 | x8 | x8 | x8 | x8 | x8 | x8 | x8 | x8 | x8 | x8 | x8 | x8 | x8 | x8 | x8 | %242
 x8 | x8 | x8 | x8 | x8 | x8 | x8 | x8 ||[M:3/4] x6 | x6 | x6 | x6 | x6 | x6 | x6 | x6 | x6 | x6 | %260
 x6 | x6 | x6 ||[K:A] x6 | x6 | x6 | x6 | x6 | x6 | x6 | x6 | x6 | x6 | x6 | x6 |][K:C][M:4/4] x8 | %276
 x8 | x8 | x8 | x8 | x8 | x8 | x8 | x8 | x8 | x8 | x8 | x8 | x8 | x8 | x8 | x8 | x8 | x8 | x8 | %295
 x8 | x8 | x8 | x8 | x8 | x8 | x8 | x8 | x8 | x8 ||[K:G] x8 | x8 | x8 | x8 | x8 | x8 | x8 | x8 | %313
 x8 | x8 | x8 | x8 | x8 | x8 | x8 | x8 | x8 | x8 | x8 | x8 | x8 | x8 | x8 | x8 | x8 | x8 | x8 | %332
 x8 | x8 | x8 | x8 | x8 | x8 | x8 | x8 | x8 | x8 |][K:C][M:4/4] x8 | x8 | x8 | x8 | x8 | x8 | x8 | %349
 x8 | x8 | x8 | x8 | x8 | x8 | x8 | x8 | x8 | x8 | x8 | x8 | x8 | x8 | x8 | x8 | x8 | x8 | x8 | %368
 x8 | x8 | x8 | x8 | x8 | x8 | F,8- | x8 | x8 | x8 | x8 | x8 | x8 |] %381

